!!!!SEGMENT: pl-cz--iii-105--010_dankowski-adalbert--missa-d-agnus-dei.krn
!!!cenid: 18xx:750
!!!COM: Dankowski, Adalbert
!!!COM-rismID: pe30000793
!!!CDT: ~1760-~1836
!!!CNT: Polish
!!!OPR: Missa D
!!!OTL: Agnus Dei
!!!OMV: 010
!!!PDT:
!!!AGN: Sacred; Mass
!!!SMS-siglum: PL-CZ
!!!SMS-shelfmark: III-105
!!!SMS-shelfwork: 001-010 M
!!!SMS-variant:
!!!SMS-altvar:
!!!NIFC-rismSourceID: 300000109
!!!NIFC-islandoraID: pl-cz:34145
!!!URL-pdf-islandora: https://repozytorium.nifc.pl/islandora/object/pl-cz%3A34145/datastream/PDF/view
!!!URL-scan:
!!!ONB-nifc: UWAGA: części Mszy: Kyrie, Gloria, Qui tollis, Quoniam, Cum Sancto,
!!!AIN: 1 alto 1 bass 2 clars 2 cor 2 oboe 1 organ 1 soprn 1 tenor 1 timpa 1 viola 2 violn
!!!key: D
**kern	**fba	**dynam	**kern	**dynam	**kern	**dynam	**kern	**dynam	**kern	**dynam	**text	**mod-text	**kern	**dynam	**text	**mod-text	**kern	**dynam	**text	**mod-text	**kern	**dynam	**text	**mod-text	**kern	**dynam	**kern	**kern	**kern	**dynam	**kern	**dynam	**kern	**dynam	**kern	**dynam
*part15	*part15	*part15	*part14	*part14	*part13	*part13	*part12	*part12	*part11	*part11	*part11	*part11	*part10	*part10	*part10	*part10	*part9	*part9	*part9	*part9	*part8	*part8	*part8	*part8	*part7	*part7	*part6	*part5	*part4	*part4	*part3	*part3	*part2	*part2	*part1	*part1
*staff15	*staff15	*	*staff14	*	*staff13	*	*staff12	*	*staff11	*	*staff11	*staff11	*staff10	*	*staff10	*staff10	*staff9	*	*staff9	*staff9	*staff8	*	*staff8	*staff8	*staff7	*	*staff6	*staff5	*staff4	*	*staff3	*	*staff2	*	*staff1	*
*I"Organo	*	*	*I"Viola Obligatto	*	*I"Violino Secundo	*	*I"Violino Primo	*	*I"Baſso	*	*	*	*I"Tenore	*	*	*	*I"Alto.	*	*	*	*I"Canto	*	*	*	*I"Timpano do D. A.	*	*I"Cornu Secundo ex D	*I"Cornu Primo ex D	*I"Clarinetto Secundo Ex A:	*	*I"Clarinetto Primo Ex A:	*	*I"Oboe Secundo Oblig:	*	*I"Oboe Primo Oblig:	*
*	*	*	*mI"Viola obligato	*	*mI"Violino II	*	*mI"Violino I	*	*mI"Basso	*	*	*	*	*	*	*	*mI"Alto	*	*	*	*mI"Soprano	*	*	*	*mI"Timpani in D and A	*	*mI"Corno II in D	*mI"Corno I in D	*mI"Clarinetto II in A	*	*mI"Clarinetto I in A	*	*mI"Oboe II obligato	*	*mI"Oboe I obligato	*
*I'org	*	*	*I'vla	*	*I'vl 2	*	*I'vl 1	*	*I'B	*	*	*	*I'T	*	*	*	*I'A	*	*	*	*I'S	*	*	*	*I'timp	*	*I'cor 2 in D	*I'cor 1 in D	*I'cl 2 in A	*	*I'cl 1 in A	*	*I'ob 2	*	*I'ob 1	*
*Iorgan	*	*	*Iviola	*	*Ivioln	*	*Ivioln	*	*Ibass	*	*	*	*Itenor	*	*	*	*Ialto	*	*	*	*Isoprn	*	*	*	*Itimpa	*	*Icor	*Icor	*Iclars	*	*Iclars	*	*Ioboe	*	*Ioboe	*
*ICklav	*	*	*ICstr	*	*ICstr	*	*ICstr	*	*ICvox	*	*	*	*ICvox	*	*	*	*ICvox	*	*	*	*ICvox	*	*	*	*ICidio	*	*ICbras	*ICbras	*ICww	*	*ICww	*	*ICww	*	*ICww	*
*IGcont	*	*	*IGacmp	*	*IGacmp	*	*IGacmp	*	*IGcoro	*	*	*	*IGcoro	*	*	*	*IGcoro	*	*	*	*IGcoro	*	*	*	*IGacmp	*	*IGacmp	*IGacmp	*IGacmp	*	*IGacmp	*	*IGacmp	*	*IGacmp	*
*clefF4	*	*	*clefC3	*	*clefG2	*	*clefG2	*	*clefF4	*	*	*	*clefC4	*	*	*	*clefC3	*	*	*	*clefC1	*	*	*	*clefF4	*	*clefG2	*clefG2	*clefG2	*	*clefG2	*	*clefG2	*	*clefG2	*
*	*	*	*	*	*	*	*	*	*	*	*	*	*mclefGv2	*	*	*	*mclefG2	*	*	*	*mclefG2	*	*	*	*	*	*	*	*	*	*	*	*	*	*	*
*	*	*	*	*	*	*	*	*	*	*	*	*	*	*	*	*	*	*	*	*	*	*	*	*	*	*	*ITrd6c10	*ITrd6c10	*ITrd2c3	*	*ITrd2c3	*	*	*	*	*
*k[f#c#]	*	*	*k[f#c#]	*	*k[f#c#]	*	*k[f#c#]	*	*k[f#c#]	*	*	*	*k[f#c#]	*	*	*	*k[f#c#]	*	*	*	*k[f#c#]	*	*	*	*k[f#c#]	*	*k[f#c#]	*k[f#c#]	*k[f#c#]	*	*k[f#c#]	*	*k[f#c#]	*	*k[f#c#]	*
*D:	*	*	*D:	*	*D:	*	*D:	*	*D:	*	*	*	*D:	*	*	*	*D:	*	*	*	*D:	*	*	*	*D:	*	*D:	*D:	*D:	*	*D:	*	*D:	*	*D:	*
*M2/4	*	*	*M2/4	*	*M2/4	*	*M2/4	*	*M2/4	*	*	*	*M2/4	*	*	*	*M2/4	*	*	*	*M2/4	*	*	*	*M2/4	*	*M2/4	*M2/4	*M2/4	*	*M2/4	*	*M2/4	*	*M2/4	*
=1	=1	=1	=1	=1	=1	=1	=1	=1	=1	=1	=1	=1	=1	=1	=1	=1	=1	=1	=1	=1	=1	=1	=1	=1	=1	=1	=1	=1	=1	=1	=1	=1	=1	=1	=1	=1
!!!OMD:
!!!OMD-mod: Andante
*	*	*	*	*	*	*	*	*	*	*	*	*	*2\right	*	*	*	*2\right	*	*	*	*	*	*	*	*	*	*	*	*2\right	*	*2\right	*	*2\right	*	*2\right	*
!	!	!	!	!	!	!	!	!	!	!	!	!	!	!	!	!	!	!	!	!	!	!	!	!	!LO:MO:mod=!null:null	!	!	!	!	!	!	!	!	!	!	!
!	!	!	!	!	!	!	!	!	!	!	!	!	!	!	!	!	!	!	!	!	!	!	!	!	!LO:TX:a:t=38.	!	!	!	!	!	!	!	!	!	!	!
!	!	!	!	!	!	!	!	!	!	!	!	!	!	!	!	!	!	!	!	!	!	!	!	!	!	!	!	!	!LO:MO:mod=!null:null	!	!LO:MO:mod=!null:null	!	!LO:MO:mod=!null:null	!	!LO:MO:mod=!null:null	!
!	!	!	!	!	!	!	!	!	!	!	!	!	!	!	!	!	!	!	!	!	!	!	!	!	!LO:MO:mod=!null:null	!	!	!	!	!	!	!	!	!	!	!
!LO:MO:mod=!null:null	!	!	!	!	!	!	!	!	!	!	!	!	!LO:MO:mod=!null:null	!	!	!	!LO:MO:mod=!null:null	!	!	!	!LO:MO:mod=!null:null	!	!	!	!	!	!	!	!	!	!	!	!	!	!	!
!LO:TX:a:i:t=Solo&colon;	!	!	!	!	!	!	!	!	!	!	!	!	!LO:TX:a:i:t=Solo&colon;	!	!	!	!LO:TX:a:i:t=Solo&colon;	!	!	!	!LO:TX:b:t=8:color=grey	!	!	!	!LO:TX:b:t=38.	!	!	!	!LO:TX:a:i:t=Solo&colon;	!	!LO:TX:a:i:t=Solo	!	!LO:TX:a:i:t=Solo&colon;	!	!LO:TX:a:i:t=Solo&colon;	!
!LO:TX:a:Bi:t=andan&colon;:mod=	!	!LO:DY:a:t=pio.	!LO:TX:a:Bi:t=andan&colon;:mod=	!LO:DY:a:t=pio	!LO:TX:a:Bi:t=andante:mod=	!LO:DY:a	!LO:TX:a:Bi:t=andante:mod=	!LO:DY:a	!LO:TX:a:Bi:t=andan&colon;:mod=	!	!	!	!LO:TX:a:Bi:t=andan&colon;:mod=	!	!	!	!LO:TX:a:Bi:t=and&colon;:mod=	!	!	!	!LO:TX:a:Bi:t=andan&colon;:mod=	!	!	!	!LO:TX:a:Bi:t=Andante.:mod=	!	!LO:TX:a:Bi:t=Andante&colon;:mod=	!LO:TX:a:Bi:t=andan&colon;:mod=	!LO:TX:a:Bi:t=andan&colon;:mod=	!	!LO:TX:a:Bi:t=andan&colon;:mod=	!	!LO:TX:a:Bi:t=andan&colon;:mod=	!	!LO:TX:a:Bi:t=andan&colon;:mod=	!
8D\L	.	p	8d\L	p	(16f#/LL	p	(16a/LL	p	0r	.	.	.	2f#\	.	A-	A-	2a\	.	A-	A-	0r	.	.	.	2r	.	0r	0r	2ff#\	.	2aa\	.	2ff#\	.	2aa\	.
.	.	.	.	.	16d/J)	.	16f#/J)	.	.	.	.	.	.	.	.	.	.	.	.	.	.	.	.	.	.	.	.	.	.	.	.	.	.	.	.	.
8D\	.	.	8d\	.	8f#|/J	.	8a|/J	.	.	.	.	.	.	.	.	.	.	.	.	.	.	.	.	.	.	.	.	.	.	.	.	.	.	.	.	.
8D\	.	.	8d\	.	16r	.	16r	.	.	.	.	.	.	.	.	.	.	.	.	.	.	.	.	.	.	.	.	.	.	.	.	.	.	.	.	.
.	.	.	.	.	16f#|/LL	.	16a|/LL	.	.	.	.	.	.	.	.	.	.	.	.	.	.	.	.	.	.	.	.	.	.	.	.	.	.	.	.	.
8D\J	.	.	8d\J	.	16f#|/	.	16a|/	.	.	.	.	.	.	.	.	.	.	.	.	.	.	.	.	.	.	.	.	.	.	.	.	.	.	.	.	.
.	.	.	.	.	16f#|/JJ	.	16a|/JJ	.	.	.	.	.	.	.	.	.	.	.	.	.	.	.	.	.	.	.	.	.	.	.	.	.	.	.	.	.
=2	=2	=2	=2	=2	=2	=2	=2	=2	=2	=2	=2	=2	=2	=2	=2	=2	=2	=2	=2	=2	=2	=2	=2	=2	=2	=2	=2	=2	=2	=2	=2	=2	=2	=2	=2	=2
*	*	*	*2\right	*	*	*	*	*	*	*	*	*	*	*	*	*	*	*	*	*	*	*	*	*	*	*	*	*	*	*	*	*	*	*	*	*
*tremolo	*	*	*tremolo	*	*	*	*	*	*	*	*	*	*	*	*	*	*	*	*	*	*	*	*	*	*	*	*	*	*	*	*	*	*	*	*	*
8AA/L	7	.	8c#\L	.	(16e/LL	.	(16g/LL	.	.	.	.	.	2e\	.	-gnus	-gnus	2g\	.	-gnus	-gnus	.	.	.	.	2r	.	.	.	2ee\	.	2gg\	.	2ee\	.	2gg\	.
.	.	.	.	.	16c#/J)	.	16e/J)	.	.	.	.	.	.	.	.	.	.	.	.	.	.	.	.	.	.	.	.	.	.	.	.	.	.	.	.	.
8AA/	.	.	8c#\	.	8e|/J	.	8g|/J	.	.	.	.	.	.	.	.	.	.	.	.	.	.	.	.	.	.	.	.	.	.	.	.	.	.	.	.	.
8AA/	.	.	8c#\	.	16r	.	16r	.	.	.	.	.	.	.	.	.	.	.	.	.	.	.	.	.	.	.	.	.	.	.	.	.	.	.	.	.
.	.	.	.	.	16e|/LL	.	16g|/LL	.	.	.	.	.	.	.	.	.	.	.	.	.	.	.	.	.	.	.	.	.	.	.	.	.	.	.	.	.
8AA/J	.	.	8c#\J	.	16e|/	.	16g|/	.	.	.	.	.	.	.	.	.	.	.	.	.	.	.	.	.	.	.	.	.	.	.	.	.	.	.	.	.
.	.	.	.	.	16e|/JJ	.	16g|/JJ	.	.	.	.	.	.	.	.	.	.	.	.	.	.	.	.	.	.	.	.	.	.	.	.	.	.	.	.	.
*Xtremolo	*	*	*Xtremolo	*	*	*	*	*	*	*	*	*	*	*	*	*	*	*	*	*	*	*	*	*	*	*	*	*	*	*	*	*	*	*	*	*
=3	=3	=3	=3	=3	=3	=3	=3	=3	=3	=3	=3	=3	=3	=3	=3	=3	=3	=3	=3	=3	=3	=3	=3	=3	=3	=3	=3	=3	=3	=3	=3	=3	=3	=3	=3	=3
!	!	!	!	!	!LO:SIC:s=(16d/LL:v	!	!	!	!	!	!	!	!	!	!	!	!	!	!	!	!	!	!	!	!	!	!	!	!	!	!	!	!	!	!	!
8D\L	.	.	8A/L	.	16d/LL	.	(16f#/LL	.	.	.	.	.	4d\	.	de-	De-	4f#\	.	de-	De-	.	.	.	.	2r	.	.	.	4dd\	.	4ff#\	.	4dd\	.	4ff#\	.
!	!	!	!	!	!LO:SIC:s=16e/J):v	!	!	!	!	!	!	!	!	!	!	!	!	!	!	!	!	!	!	!	!	!	!	!	!	!	!	!	!	!	!	!
.	.	.	.	.	16e/J	.	16g/J)	.	.	.	.	.	.	.	.	.	.	.	.	.	.	.	.	.	.	.	.	.	.	.	.	.	.	.	.	.
8D\	.	.	8A/	.	8f#/J	.	8a/J	.	.	.	.	.	.	.	.	.	.	.	.	.	.	.	.	.	.	.	.	.	.	.	.	.	.	.	.	.
8G\	6	.	8B/	.	16r	.	16r	.	.	.	.	.	8e\	.	-i	-i,	8g\	.	-i	-i,	.	.	.	.	.	.	.	.	8ee\L	.	8gg\L	.	8ee\L	.	8gg\L	.
.	.	.	.	.	16e/LL	.	16g/LL	.	.	.	.	.	.	.	.	.	.	.	.	.	.	.	.	.	.	.	.	.	.	.	.	.	.	.	.	.
!	!	!	!	!	!LO:SIC:s=16c#/:v	!	!LO:SIC:s=16e/:v	!	!	!	!	!	!	!	!	!	!	!	!	!	!	!	!	!	!	!	!	!	!	!	!	!	!	!	!	!
8A\J	.	.	8A/J	.	16d/	.	16f#/	.	.	.	.	.	8c#\	.	qui	qui	8e\	.	qui	qui	.	.	.	.	.	.	.	.	8cc#\J	.	8ee\J	.	8cc#\J	.	8ee\J	.
.	.	.	.	.	16c#/JJ	.	16e/JJ	.	.	.	.	.	.	.	.	.	.	.	.	.	.	.	.	.	.	.	.	.	.	.	.	.	.	.	.	.
=4	=4	=4	=4	=4	=4	=4	=4	=4	=4	=4	=4	=4	=4	=4	=4	=4	=4	=4	=4	=4	=4	=4	=4	=4	=4	=4	=4	=4	=4	=4	=4	=4	=4	=4	=4	=4
16d\LL	.	.	16A/LL	.	(16d|/LL	.	(16f#|/LL	.	.	.	.	.	8d\	.	tol-	tol-	8f#\	.	tol-	tol-	.	.	.	.	2r	.	.	.	4dd\	.	4ff#\	.	4dd\	.	4ff#\	.
16D\	.	.	16A/	.	16d|/	.	16f#|/	.	.	.	.	.	.	.	.	.	.	.	.	.	.	.	.	.	.	.	.	.	.	.	.	.	.	.	.	.
16D\	.	.	16A/	.	16d|/	.	16f#|/	.	.	.	.	.	8d\	.	-lis	-lis	8f#\	.	-lis	-lis	.	.	.	.	.	.	.	.	.	.	.	.	.	.	.	.
16D\JJ	.	.	16A/JJ	.	16d|/JJ)	.	16f#|/JJ)	.	.	.	.	.	.	.	.	.	.	.	.	.	.	.	.	.	.	.	.	.	.	.	.	.	.	.	.	.
4D\	.	.	4A/	.	4d|/	.	4f#|/	.	.	.	.	.	16r	.	.	.	16r	.	.	.	.	.	.	.	.	.	.	.	16r	.	16r	.	16r	.	16r	.
!	!	!	!	!	!	!	!	!	!	!	!	!	!	!	!	!	!	!	!	!	!	!	!	!	!	!	!	!	!	!	!LO:SIC:s=(16aa|\LL:v	!	!LO:SIC:s=(16ff#|\LL:v	!	!LO:SIC:s=(16aa|\LL:v	!
.	.	.	.	.	.	.	.	.	.	.	.	.	16f#\	.	pec-	pec-	16a\	.	pec-	pec-	.	.	.	.	.	.	.	.	(16ff#|\LL	.	16aa|\LL	.	16ff#|\LL	.	16aa|\LL	.
.	.	.	.	.	.	.	.	.	.	.	.	.	16f#\	.	-ca-	-ca-	16a\	.	-ca-	-ca-	.	.	.	.	.	.	.	.	16ff#|\	.	16aa|\	.	16ff#|\	.	16aa|\	.
!	!	!	!	!	!	!	!	!	!	!	!	!	!	!	!	!	!	!	!	!	!	!	!	!	!	!	!	!	!	!	!LO:SIC:s=16aa|\JJ):v	!	!LO:SIC:s=16ff#|\JJ):v	!	!LO:SIC:s=16aa|\JJ):v	!
.	.	.	.	.	.	.	.	.	.	.	.	.	16f#\	.	-ta	-ta	16a\	.	-ta	-ta	.	.	.	.	.	.	.	.	16ff#|\JJ)	.	16aa|\JJ	.	16ff#|\JJ	.	16aa|\JJ	.
=5	=5	=5	=5	=5	=5	=5	=5	=5	=5	=5	=5	=5	=5	=5	=5	=5	=5	=5	=5	=5	=5	=5	=5	=5	=5	=5	=5	=5	=5	=5	=5	=5	=5	=5	=5	=5
!	!	!	!	!	!	!	!	!	!	!	!	!	!LO:SIC:s=(16f#\LL:v	!	!	!	!LO:SIC:s=(16a\LL:v	!	!	!	!	!	!	!	!	!	!	!	!	!	!	!	!	!	!	!
16r	.	.	16r	.	16r	.	16r	.	0r	.	.	.	16f#\LL	.	mun-	mun-	16a\LL	.	mun-	mun-	0r	.	.	.	2r	.	0r	0r	(16ff#\LL	.	(16aa\LL	.	(16ff#\LL	.	(16aa\LL	.
!	!	!	!	!	!	!	!	!	!	!	!	!	!LO:SIC:s=16e\JJ):v	!	!	!	!LO:SIC:s=16g\JJ):v	!	!	!	!	!	!	!	!	!	!	!	!	!	!	!	!	!	!	!
16D\LL	.	.	16A/LL	.	(16d|/LL	.	(16f#|/LL	.	.	.	.	.	16e\JJ	.	.	.	16g\JJ	.	.	.	.	.	.	.	.	.	.	.	16ee\J)	.	16gg\J)	.	16ee\J)	.	16gg\J)	.
16D\	.	.	16A/	.	16d|/	.	16f#|/	.	.	.	.	.	8d\	.	-di	-di,	8f#\	.	-di	-di,	.	.	.	.	.	.	.	.	8dd|\J	.	8ff#|\J	.	8dd|\J	.	8ff#|\J	.
16D\JJ	.	.	16A/JJ	.	16d|/JJ	.	16f#|/JJ	.	.	.	.	.	.	.	.	.	.	.	.	.	.	.	.	.	.	.	.	.	.	.	.	.	.	.	.	.
4D\	.	.	4A/	.	4d|/)	.	4f#|/)	.	.	.	.	.	16r	.	.	.	16r	.	.	.	.	.	.	.	.	.	.	.	16r	.	16r	.	16r	.	16r	.
!	!	!	!	!	!	!	!	!	!	!	!	!	!	!	!	!	!	!	!	!	!	!	!	!	!	!	!	!	!	!	!LO:SIC:s=(16aa|\LL:v	!	!LO:SIC:s=(16ff#|\LL:v	!	!LO:SIC:s=(16aa|\LL:v	!
.	.	.	.	.	.	.	.	.	.	.	.	.	16f#\	.	pec-	pec-	16a\	.	pec-	pec-	.	.	.	.	.	.	.	.	(16ff#|\LL	.	16aa|\LL	.	16ff#|\LL	.	16aa|\LL	.
.	.	.	.	.	.	.	.	.	.	.	.	.	16f#\	.	-ca-	-ca-	16a\	.	-ca-	-ca-	.	.	.	.	.	.	.	.	16ff#|\	.	16aa|\	.	16ff#|\	.	16aa|\	.
!	!	!	!	!	!	!	!	!	!	!	!	!	!	!	!	!	!	!	!	!	!	!	!	!	!	!	!	!	!	!	!LO:SIC:s=16aa|\JJ):v	!	!LO:SIC:s=16ff#|\JJ):v	!	!LO:SIC:s=16aa|\JJ):v	!
.	.	.	.	.	.	.	.	.	.	.	.	.	16f#\	.	-ta	-ta	16a\	.	-ta	-ta	.	.	.	.	.	.	.	.	16ff#|\JJ)	.	16aa|\JJ	.	16ff#|\JJ	.	16aa|\JJ	.
!	!	!	!	!	!LO:LB:g=original	!	!	!	!	!	!	!	!LO:LB:g=original	!	!	!	!LO:LB:g=original	!	!	!	!	!	!	!	!	!	!	!	!	!	!	!	!	!	!	!
=6	=6	=6	=6	=6	=6	=6	=6	=6	=6	=6	=6	=6	=6	=6	=6	=6	=6	=6	=6	=6	=6	=6	=6	=6	=6	=6	=6	=6	=6	=6	=6	=6	=6	=6	=6	=6
!	!	!	!	!	!	!	!	!	!	!	!	!	!LO:SIC:s=(16f#\LL:v	!	!	!	!LO:SIC:s=(16a\LL:v	!	!	!	!	!	!	!	!	!	!	!	!	!	!	!	!	!	!	!
16r	.	.	16r	.	16r	.	16r	.	.	.	.	.	16f#\LL	.	mun-	mun-	16a\LL	.	mun-	mun-	.	.	.	.	2r	.	.	.	(16ff#\LL	.	(16aa\LL	.	(16ff#\LL	.	(16aa\LL	.
!	!	!	!	!	!	!	!	!	!	!	!	!	!LO:SIC:s=16e\JJ):v	!	!	!	!LO:SIC:s=16g\JJ):v	!	!	!	!	!	!	!	!	!	!	!	!	!	!	!	!	!	!	!
16D\LL	.	.	16A/LL	.	(16d|/LL	.	(16f#|/LL	.	.	.	.	.	16e\JJ	.	.	.	16g\JJ	.	.	.	.	.	.	.	.	.	.	.	16ee\J)	.	16gg\J)	.	16ee\J)	.	16gg\J)	.
16D\	.	.	16A/	.	16d|/	.	16f#|/	.	.	.	.	.	8d\	.	-di	-di,	8f#\	.	-di	-di,	.	.	.	.	.	.	.	.	8dd|\J	.	8ff#|\J	.	8dd|\J	.	8ff#|\J	.
16D\JJ	.	.	16A/JJ	.	16d|/JJ	.	16f#|/JJ	.	.	.	.	.	.	.	.	.	.	.	.	.	.	.	.	.	.	.	.	.	.	.	.	.	.	.	.	.
!	!	!	!	!	!	!	!	!	!	!	!	!	!	!	!	!	!	!	!	!	!	!	!	!	!	!	!	!	!	!	!LO:LB:g=original	!	!	!	!	!
4D\	.	.	4A/	.	4d|/)	.	4f#|/)	.	.	.	.	.	16r	.	.	.	16r	.	.	.	.	.	.	.	.	.	.	.	16r	.	16r	.	16r	.	16r	.
.	.	.	.	.	.	.	.	.	.	.	.	.	16f#\	.	tol-	tol-	16a\	.	tol-	tol-	.	.	.	.	.	.	.	.	16ff#|\LL	.	16aa|\LL	.	16ff#|\LL	.	16aa|\LL	.
.	.	.	.	.	.	.	.	.	.	.	.	.	16f#\	.	-lis	-lis	16a\	.	-lis	-lis	.	.	.	.	.	.	.	.	16ff#|\	.	16aa|\	.	16ff#|\	.	16aa|\	.
.	.	.	.	.	.	.	.	.	.	.	.	.	16f#\	.	pec-	pec-	16a\	.	pec-	pec-	.	.	.	.	.	.	.	.	16ff#|\JJ	.	16aa|\JJ	.	16ff#|\JJ	.	16aa|\JJ	.
!	!	!	!LO:LB:g=original	!	!	!	!LO:LB:g=original	!	!	!	!	!	!	!	!	!	!	!	!	!	!	!	!	!	!	!	!	!	!LO:LB:g=original	!	!	!	!	!	!	!
=7	=7	=7	=7	=7	=7	=7	=7	=7	=7	=7	=7	=7	=7	=7	=7	=7	=7	=7	=7	=7	=7	=7	=7	=7	=7	=7	=7	=7	=7	=7	=7	=7	=7	=7	=7	=7
16r	.	.	16r	.	16r	.	16r	.	.	.	.	.	(4f#\	.	-ca-	-ca-	(4a\	.	-ca-	-ca-	.	.	.	.	2r	.	.	.	4ff#\	.	4aa\	.	4ff#\	.	4aa\	.
16D\LL	.	.	16d\LL	.	(16f#|/LL	.	(16a|/LL	.	.	.	.	.	.	.	.	.	.	.	.	.	.	.	.	.	.	.	.	.	.	.	.	.	.	.	.	.
16D\	.	.	16d\	.	16f#|/	.	16a|/	.	.	.	.	.	.	.	.	.	.	.	.	.	.	.	.	.	.	.	.	.	.	.	.	.	.	.	.	.
16D\JJ	.	.	16d\JJ	.	16f#|/JJ)	.	16a|/JJ)	.	.	.	.	.	.	.	.	.	.	.	.	.	.	.	.	.	.	.	.	.	.	.	.	.	.	.	.	.
16G\LL	6_	.	16B/LL	.	(16e|/LL	.	16g/LL	.	.	.	.	.	8e\)	.	.	.	8g\)	.	.	.	.	.	.	.	.	.	.	.	8ee\L	.	8gg\L	.	8ee\L	.	8gg\L	.
16G\	.	.	16B/	.	16e|/	.	16g/	.	.	.	.	.	.	.	.	.	.	.	.	.	.	.	.	.	.	.	.	.	.	.	.	.	.	.	.	.
16G#X\	5_	.	16B/	.	16d|/	.	16f#/	.	.	.	.	.	8d\	.	-ta	-ta	8f#\	.	-ta	-ta	.	.	.	.	.	.	.	.	8dd\J	.	8ff#\J	.	8dd\J	.	8ff#\J	.
16G#\JJ	.	.	16B/JJ	.	16d|/JJ)	.	16f#/JJ	.	.	.	.	.	.	.	.	.	.	.	.	.	.	.	.	.	.	.	.	.	.	.	.	.	.	.	.	.
!	!	!	!	!	!	!	!	!	!	!	!	!	!	!	!	!	!	!	!	!	!	!	!	!	!	!	!	!	!	!	!	!	!	!	!LO:LB:g=original	!
=8	=8	=8	=8	=8	=8	=8	=8	=8	=8	=8	=8	=8	=8	=8	=8	=8	=8	=8	=8	=8	=8	=8	=8	=8	=8	=8	=8	=8	=8	=8	=8	=8	=8	=8	=8	=8
!LO:TX:t=P:problem=mixed beam	!	!	!	!	!	!	!	!	!	!	!	!	!	!	!	!	!	!	!	!	!	!	!	!	!	!	!	!	!	!	!	!	!	!	!	!
8A\L	x	.	8A/L	.	8c#/L	.	16e/LL	.	.	.	.	.	8c#\	.	mun-	mun-	8e\	.	mun-	mun-	.	.	.	.	2r	.	.	.	4cc#\	.	4ee\	.	4cc#\	.	4ee\	.
.	.	.	.	.	.	.	16c#/	.	.	.	.	.	.	.	.	.	.	.	.	.	.	.	.	.	.	.	.	.	.	.	.	.	.	.	.	.
8AA/J	.	.	8A/J	.	16e/L	.	16e/	.	.	.	.	.	8c#\	.	-di	-di,	8e\	.	-di	-di,	.	.	.	.	.	.	.	.	.	.	.	.	.	.	.	.
.	.	.	.	.	16a/JJ	.	16a/JJ	.	.	.	.	.	.	.	.	.	.	.	.	.	.	.	.	.	.	.	.	.	.	.	.	.	.	.	.	.
4r	.	.	4r	.	16cc#\LL	.	16cc#\LL	.	.	.	.	.	4r	.	.	.	4r	.	.	.	.	.	.	.	.	.	.	.	4r	.	4r	.	4r	.	4r	.
.	.	.	.	.	16ee\	.	16ee\	.	.	.	.	.	.	.	.	.	.	.	.	.	.	.	.	.	.	.	.	.	.	.	.	.	.	.	.	.
.	.	.	.	.	16cc#\	.	16cc#\	.	.	.	.	.	.	.	.	.	.	.	.	.	.	.	.	.	.	.	.	.	.	.	.	.	.	.	.	.
.	.	.	.	.	16a\JJ	.	16a\JJ	.	.	.	.	.	.	.	.	.	.	.	.	.	.	.	.	.	.	.	.	.	.	.	.	.	.	.	.	.
!LO:LB:g=original	!	!	!	!	!	!	!	!	!	!	!	!	!	!	!	!	!	!	!	!	!	!	!	!	!	!	!	!	!	!	!	!	!LO:LB:g=original	!	!	!
=9	=9	=9	=9	=9	=9	=9	=9	=9	=9	=9	=9	=9	=9	=9	=9	=9	=9	=9	=9	=9	=9	=9	=9	=9	=9	=9	=9	=9	=9	=9	=9	=9	=9	=9	=9	=9
*	*	*	*	*	*	*	*	*	*	*	*	*	*	*	*	*	*	*	*	*	*	*	*	*	*	*	*2\right	*2\right	*	*	*	*	*	*	*	*
!LO:MO:mod=!LO&colon;TX&colon;a&colon;i&colon;t=Tutti	!	!	!	!	!	!	!	!	!	!	!	!	!	!	!	!	!	!	!	!	!	!	!	!	!	!	!	!	!	!	!	!	!	!	!	!
!LO:TX:a:i:t=tutti	!	!	!	!LO:DY:a	!	!LO:DY:a:rj	!	!LO:DY:a:rj	!	!	!	!	!	!	!	!	!	!	!	!	!	!	!	!	!	!	!	!	!	!LO:DY:a	!	!LO:DY:a	!	!LO:DY:a	!	!LO:DY:a
!	!	!	!	!	!	!	!	!	!LO:SIC:s=(8d\L:v	!	!	!	!LO:SIC:s=(8B\L:v	!	!	!	!LO:SIC:s=(8g#X\L:v	!	!	!	!	!	!	!	!	!	!	!	!	!	!	!	!	!	!	!
8D/L	r#4 2	.	8e\L	f	(16g#X\LL	f	(16g#X/LL	f	8d\L	.	mi-	Mi-	8B\L	.	mi-	mi-	8g#X\L	.	mi-	mi-	4.ee\	.	mi-	Mi-	2r	.	2e\	2e\	2e/	f	2ee\	f	2e/	f	2ee\	f
.	.	.	.	.	16b\)	.	16b/)	.	.	.	.	.	.	.	.	.	.	.	.	.	.	.	.	.	.	.	.	.	.	.	.	.	.	.	.	.
!	!	!	!	!	!	!	!	!	!LO:SIC:s=8c#\J:v	!	!	!	!LO:SIC:s=8c#\J:v	!	!	!	!LO:SIC:s=8a\J:v	!	!	!	!	!	!	!	!	!	!	!	!	!	!	!	!	!	!	!
8C#/	6	.	8e\	.	(16a\	.	(16a/	.	(8c#\J	.	.	.	(8c#\J	.	.	.	(8a\J	.	.	.	.	.	.	.	.	.	.	.	.	.	.	.	.	.	.	.
.	.	.	.	.	16cc#\JJ)	.	16cc#/JJ)	.	.	.	.	.	.	.	.	.	.	.	.	.	.	.	.	.	.	.	.	.	.	.	.	.	.	.	.	.
8BB/	6\	.	8g#X\	.	(16b\LL	.	(16b\LL	.	8B\)	.	.	.	8G#X/)	.	.	.	8b\)	.	.	.	.	.	.	.	.	.	.	.	.	.	.	.	.	.	.	.
.	.	.	.	.	16dd\)	.	16dd\)	.	.	.	.	.	.	.	.	.	.	.	.	.	.	.	.	.	.	.	.	.	.	.	.	.	.	.	.	.
8AA/J	.	.	8a\J	.	(16cc#\	.	(16cc#\	.	8A\	.	-ſe-	-se-	8A\	.	-ſe-	-se-	8cc#\	.	-ſe-	-se-	8ee\	.	-ſe-	-se-	.	.	.	.	.	.	.	.	.	.	.	.
.	.	.	.	.	16ee\JJ)	.	16ee\JJ)	.	.	.	.	.	.	.	.	.	.	.	.	.	.	.	.	.	.	.	.	.	.	.	.	.	.	.	.	.
=10	=10	=10	=10	=10	=10	=10	=10	=10	=10	=10	=10	=10	=10	=10	=10	=10	=10	=10	=10	=10	=10	=10	=10	=10	=10	=10	=10	=10	=10	=10	=10	=10	=10	=10	=10	=10
8GG#X/L	.	.	8b\L	.	(16dd\LL	.	(16dd\LL	.	8G#X\	.	-re-	-re-	8B\	.	-re-	-re-	8dd\	.	-re-	-re-	8ee\	.	-re-	-re-	2r	.	8e\L	8e\L	8e/L	.	8ee\L	.	8e/L	.	8ee\L	.
.	.	.	.	.	16ee\)	.	16ee\)	.	.	.	.	.	.	.	.	.	.	.	.	.	.	.	.	.	.	.	.	.	.	.	.	.	.	.	.	.
8AA/J	.	.	8a\J	.	(16cc#\	.	(16cc#\	.	8A\	.	-re	-re,	8A\	.	-re	-re,	8cc#\	.	-re	-re,	8ee\	.	-re	-re,	.	.	8e\J	8e\J	8e/J	.	8ee\J	.	8e/J	.	8ee\J	.
.	.	.	.	.	16ee\JJ)	.	16ee\JJ)	.	.	.	.	.	.	.	.	.	.	.	.	.	.	.	.	.	.	.	.	.	.	.	.	.	.	.	.	.
4r	.	.	4r	.	(16a\LL	.	(16a\LL	.	4r	.	.	.	4r	.	.	.	4r	.	.	.	4r	.	.	.	.	.	4r	4r	4r	.	4r	.	4r	.	4r	.
.	.	.	.	.	16ee\JJ)	.	16ee\JJ)	.	.	.	.	.	.	.	.	.	.	.	.	.	.	.	.	.	.	.	.	.	.	.	.	.	.	.	.	.
.	.	.	.	.	(32dd\LLL	.	(32dd\LLL	.	.	.	.	.	.	.	.	.	.	.	.	.	.	.	.	.	.	.	.	.	.	.	.	.	.	.	.	.
.	.	.	.	.	32cc#\	.	32cc#\	.	.	.	.	.	.	.	.	.	.	.	.	.	.	.	.	.	.	.	.	.	.	.	.	.	.	.	.	.
.	.	.	.	.	32b\	.	32b\	.	.	.	.	.	.	.	.	.	.	.	.	.	.	.	.	.	.	.	.	.	.	.	.	.	.	.	.	.
.	.	.	.	.	32a\JJJ)	.	32a\JJJ)	.	.	.	.	.	.	.	.	.	.	.	.	.	.	.	.	.	.	.	.	.	.	.	.	.	.	.	.	.
=11	=11	=11	=11	=11	=11	=11	=11	=11	=11	=11	=11	=11	=11	=11	=11	=11	=11	=11	=11	=11	=11	=11	=11	=11	=11	=11	=11	=11	=11	=11	=11	=11	=11	=11	=11	=11
*	*	*	*	*	*	*	*	*	*	*	*	*	*	*	*	*	*	*	*	*	*	*	*ij	*ij	*	*	*	*	*	*	*	*	*	*	*	*
!	!	!	!	!	!	!	!	!	!LO:SIC:s=(8d\L:v	!	!	!	!LO:SIC:s=(8B\L:v	!	!	!	!LO:SIC:s=(8g#X\L:v	!	!	!	!	!	!	!	!	!	!	!	!	!	!	!	!	!	!	!
8D/L	r#4 2	.	8e\L	.	(16g#X\LL	.	(16g#X/LL	.	8d\L	.	mi-	mi-	8B\L	.	mi-	mi-	8g#X\L	.	mi-	mi-	4.ee\	.	mi-	mi-	2r	.	2e\	2e\	2e/	.	2ee\	.	2e/	.	2ee\	.
.	.	.	.	.	16b\)	.	16b/)	.	.	.	.	.	.	.	.	.	.	.	.	.	.	.	.	.	.	.	.	.	.	.	.	.	.	.	.	.
!	!	!	!	!	!	!	!	!	!LO:SIC:s=8c#\J:v	!	!	!	!	!	!	!	!LO:SIC:s=8a\J:v	!	!	!	!	!	!	!	!	!	!	!	!	!	!	!	!	!	!	!
8C#/	6	.	8e\	.	(16a\	.	(16a/	.	(8c#\J	.	.	.	8c#\J	.	.	.	(8a\J	.	.	.	.	.	.	.	.	.	.	.	.	.	.	.	.	.	.	.
.	.	.	.	.	16cc#\JJ)	.	16cc#/JJ)	.	.	.	.	.	.	.	.	.	.	.	.	.	.	.	.	.	.	.	.	.	.	.	.	.	.	.	.	.
!	!	!	!	!	!LO:LB:g=original	!	!	!	!	!	!	!	!LO:LB:g=original	!	!	!	!	!	!	!	!	!	!	!	!	!	!	!	!	!	!	!	!	!	!	!
!	!	!	!	!	!	!	!	!	!	!	!	!	!LO:SIC:s=8G#X/):v	!	!	!	!	!	!	!	!	!	!	!	!	!	!	!	!	!	!	!	!	!	!	!
8BB/	6\	.	8g#X\	.	(16b\LL	.	(16b\LL	.	8B\)	.	.	.	8G#X/	.	.	.	8b\)	.	.	.	.	.	.	.	.	.	.	.	.	.	.	.	.	.	.	.
.	.	.	.	.	16dd\)	.	16dd\)	.	.	.	.	.	.	.	.	.	.	.	.	.	.	.	.	.	.	.	.	.	.	.	.	.	.	.	.	.
8AA/J	.	.	8a\J	.	(16cc#\	.	(16cc#\	.	8A\	.	-ſe-	-se-	8A\	.	-ſe-	-se-	8cc#\	.	-ſe-	-se-	8ee\	.	-ſe-	-se-	.	.	.	.	.	.	.	.	.	.	.	.
.	.	.	.	.	16ee\JJ)	.	16ee\JJ)	.	.	.	.	.	.	.	.	.	.	.	.	.	.	.	.	.	.	.	.	.	.	.	.	.	.	.	.	.
!	!	!	!	!	!	!	!LO:LB:g=original	!	!	!	!	!	!	!	!	!	!LO:LB:g=original	!	!	!	!	!	!	!	!	!	!	!	!	!	!	!	!	!	!	!
=12	=12	=12	=12	=12	=12	=12	=12	=12	=12	=12	=12	=12	=12	=12	=12	=12	=12	=12	=12	=12	=12	=12	=12	=12	=12	=12	=12	=12	=12	=12	=12	=12	=12	=12	=12	=12
8GG#X/L	6 5	.	8b\L	.	(16dd\LL	.	(16dd\LL	.	8G#X\	.	-re-	-re-	8B\	.	-re-	-re-	8dd\	.	-re-	-re-	8ee\	.	-re-	-re-	2r	.	8e\L	8e\L	8e/L	.	8ee\L	.	8e/L	.	8ee\L	.
.	.	.	.	.	16ee\)	.	16ee\)	.	.	.	.	.	.	.	.	.	.	.	.	.	.	.	.	.	.	.	.	.	.	.	.	.	.	.	.	.
8AA/J	.	.	8a\J	.	(16cc#\	.	(16cc#\	.	8A\	.	-re	-re,	8A\	.	-re	-re,	8cc#\	.	-re	-re,	8ee\	.	-re	-re,	.	.	8e\J	8e\J	8e/J	.	8ee\J	.	8e/J	.	8ee\J	.
.	.	.	.	.	16ee\JJ)	.	16ee\JJ)	.	.	.	.	.	.	.	.	.	.	.	.	.	.	.	.	.	.	.	.	.	.	.	.	.	.	.	.	.
4r	.	.	4r	.	(16a\LL	.	(16a\LL	.	4r	.	.	.	4r	.	.	.	4r	.	.	.	4r	.	.	.	.	.	4r	4r	4r	.	4r	.	4r	.	4r	.
.	.	.	.	.	16ee\JJ)	.	16ee\JJ)	.	.	.	.	.	.	.	.	.	.	.	.	.	.	.	.	.	.	.	.	.	.	.	.	.	.	.	.	.
.	.	.	.	.	(32dd\LLL	.	(32dd\LLL	.	.	.	.	.	.	.	.	.	.	.	.	.	.	.	.	.	.	.	.	.	.	.	.	.	.	.	.	.
.	.	.	.	.	32cc#\	.	32cc#\	.	.	.	.	.	.	.	.	.	.	.	.	.	.	.	.	.	.	.	.	.	.	.	.	.	.	.	.	.
.	.	.	.	.	32b\	.	32b\	.	.	.	.	.	.	.	.	.	.	.	.	.	.	.	.	.	.	.	.	.	.	.	.	.	.	.	.	.
.	.	.	.	.	32a\JJJ)	.	32a\JJJ)	.	.	.	.	.	.	.	.	.	.	.	.	.	.	.	.	.	.	.	.	.	.	.	.	.	.	.	.	.
!	!	!	!	!	!	!	!	!	!LO:LB:g=original	!	!	!	!	!	!	!	!	!	!	!	!	!	!	!	!	!	!	!	!	!	!	!	!	!	!	!
=13	=13	=13	=13	=13	=13	=13	=13	=13	=13	=13	=13	=13	=13	=13	=13	=13	=13	=13	=13	=13	=13	=13	=13	=13	=13	=13	=13	=13	=13	=13	=13	=13	=13	=13	=13	=13
8C#/L	6_	.	8e\L	.	(16g#X/LL	.	(16g#X/LL	.	4C#/	.	mi-	mi-	4A\	.	mi-	mi-	4e\	.	mi-	mi-	4a\	.	mi-	mi-	2r	.	4A/	4e\	4ee\	.	4aa\	.	4ee\	.	4aa\	.
.	.	.	.	.	16a/J)	.	16a/J)	.	.	.	.	.	.	.	.	.	.	.	.	.	.	.	.	.	.	.	.	.	.	.	.	.	.	.	.	.
8C#/	.	.	8e\	.	8a/J	.	8a|/J	.	.	.	.	.	.	.	.	.	.	.	.	.	.	.	.	.	.	.	.	.	.	.	.	.	.	.	.	.
8D/	6_ 5_	.	8f#\	.	16r	.	16r	.	4D\	.	-ſe-	-se-	4A\	.	-ſe-	-se-	4f#\	.	-ſe-	-se-	4b\	.	-ſe-	-se-	.	.	4d\	4f#\	4ff#\	.	4bb\	.	4ff#\	.	4bb\	.
.	.	.	.	.	16b|/LL	.	16b|/LL	.	.	.	.	.	.	.	.	.	.	.	.	.	.	.	.	.	.	.	.	.	.	.	.	.	.	.	.	.
8D/J	.	.	8f#\J	.	(16b/	.	(16b/	.	.	.	.	.	.	.	.	.	.	.	.	.	.	.	.	.	.	.	.	.	.	.	.	.	.	.	.	.
!	!	!	!	!	!	!	!LO:MO:mod=!null:null	!	!	!	!	!	!	!	!	!	!	!	!	!	!	!	!	!	!	!	!	!	!	!	!	!	!	!	!	!
!	!	!	!	!	!	!	!LO:TX:b:i:t=Verte Cito	!	!	!	!	!	!	!	!	!	!	!	!	!	!	!	!	!	!	!	!	!	!	!	!	!	!	!	!	!
.	.	.	.	.	16a/JJ)	.	16a/JJ)	.	.	.	.	.	.	.	.	.	.	.	.	.	.	.	.	.	.	.	.	.	.	.	.	.	.	.	.	.
!	!	!	!LO:LB:g=original	!	!	!	!LO:PB:g=original	!	!	!	!	!	!	!	!	!	!	!	!	!	!	!	!	!	!	!	!	!	!	!	!	!	!	!	!	!
=14	=14	=14	=14	=14	=14	=14	=14	=14	=14	=14	=14	=14	=14	=14	=14	=14	=14	=14	=14	=14	=14	=14	=14	=14	=14	=14	=14	=14	=14	=14	=14	=14	=14	=14	=14	=14
8E\L	#_	.	8B/L	.	(16a/LL	.	(16a/LL	.	4E\	.	-re-	-re-	4B\	.	-re-	-re-	4g#X\	.	-re-	-re-	4b\	.	-re-	-re-	2r	.	4e\	4g#X\	4b\	.	4gg#\	.	4b\	.	4gg#X\	.
!	!	!	!	!	!LO:SIC:v:s=16g#/J)	!	!	!	!	!	!	!	!	!	!	!	!	!	!	!	!	!	!	!	!	!	!	!	!	!	!	!	!	!	!	!
.	.	.	.	.	16g/J)	.	16g#X/J)	.	.	.	.	.	.	.	.	.	.	.	.	.	.	.	.	.	.	.	.	.	.	.	.	.	.	.	.	.
!	!	!	!	!	!LO:SIC:v:s=8g#/J	!	!	!	!	!	!	!	!	!	!	!	!	!	!	!	!	!	!	!	!	!	!	!	!	!	!	!	!	!	!	!
8E\	.	.	8B/	.	8g/J	.	8g#/J	.	.	.	.	.	.	.	.	.	.	.	.	.	.	.	.	.	.	.	.	.	.	.	.	.	.	.	.	.
8F#\	x	.	8c#/	.	16r	.	16r	.	4F#\	.	-re	-re	4A\	.	-re	-re	4a\	.	-re	-re	4cc#\	.	-re	-re	.	.	4A/	4a\	4cc#\	.	4aa\	.	4cc#\	.	4aa\	.
*	*	*	*	*	*	*	*	*	*	*	*	*	*	*	*	*	*	*	*	*	*	*	*Xij	*Xij	*	*	*	*	*	*	*	*	*	*	*	*
.	.	.	.	.	(16a/LL	.	16a\LL	.	.	.	.	.	.	.	.	.	.	.	.	.	.	.	.	.	.	.	.	.	.	.	.	.	.	.	.	.
!	!	!	!	!	!LO:SIC:v:s=16g#/	!	!	!	!	!	!	!	!	!	!	!	!	!	!	!	!	!	!	!	!	!	!	!	!	!	!	!	!	!	!	!
8F#\J	.	.	8c#/J	.	16g/	.	16b\	.	.	.	.	.	.	.	.	.	.	.	.	.	.	.	.	.	.	.	.	.	.	.	.	.	.	.	.	.
.	.	.	.	.	16a/JJ)	.	16cc#\JJ	.	.	.	.	.	.	.	.	.	.	.	.	.	.	.	.	.	.	.	.	.	.	.	.	.	.	.	.	.
!	!	!	!	!	!	!	!	!	!	!	!	!	!	!	!	!	!	!	!	!	!	!	!	!	!	!	!	!	!	!	!LO:LB:g=original	!	!	!	!	!
=15	=15	=15	=15	=15	=15	=15	=15	=15	=15	=15	=15	=15	=15	=15	=15	=15	=15	=15	=15	=15	=15	=15	=15	=15	=15	=15	=15	=15	=15	=15	=15	=15	=15	=15	=15	=15
!LO:TX:t=P:problem=mixed beam	!	!	!	!	!	!	!	!	!	!	!	!	!	!	!	!	!	!	!	!	!	!	!	!	!	!	!	!	!	!	!	!	!	!	!	!
!	!	!	!	!	!	!	!	!	!LO:SIC:s=(4D\:v	!	!	!	!	!	!	!	!LO:SIC:s=(4b\:v	!	!	!	!LO:SIC:s=(4dd\:v	!	!	!	!	!	!	!	!	!	!	!	!	!	!	!
8D\L	6_	.	8F#/L	.	8f#/L	.	16b\LL	.	4D\	.	no-	no-	(4f#\	.	no-	no-	4b\	.	no-	no-	4dd\	.	no-	no-	2r	.	4f#\	4f#\	4dd\	.	4bb\	.	4dd\	.	4bb\	.
.	.	.	.	.	.	.	16dd\	.	.	.	.	.	.	.	.	.	.	.	.	.	.	.	.	.	.	.	.	.	.	.	.	.	.	.	.	.
8D\	.	.	8F#/	.	16e/L	.	16cc#\	.	.	.	.	.	.	.	.	.	.	.	.	.	.	.	.	.	.	.	.	.	.	.	.	.	.	.	.	.
.	.	.	.	.	16d/JJ	.	16b\JJ	.	.	.	.	.	.	.	.	.	.	.	.	.	.	.	.	.	.	.	.	.	.	.	.	.	.	.	.	.
!	!	!	!	!	!	!	!	!	!LO:SIC:s=4E\):v	!	!	!	!	!	!	!	!	!	!	!	!	!	!	!	!	!	!	!	!	!	!	!	!	!	!	!
8E\	4	.	8E/	.	16d/LL	.	16b/LL	.	4E\	.	.	.	4e\)	.	.	.	8a\L	.	.	.	8cc#\L	.	.	.	.	.	8e\L	8e\L	8cc#\L	.	8aa\L	.	8cc#\L	.	8aa\L	.
.	.	.	.	.	16c#/	.	16a/	.	.	.	.	.	.	.	.	.	.	.	.	.	.	.	.	.	.	.	.	.	.	.	.	.	.	.	.	.
!	!	!	!	!	!	!	!	!	!	!	!	!	!	!	!	!	!	!	!	!	!	!	!	!	!	!	!	!	!	!	!	!	!	!	!LO:SIC:v:s=8gg#\J	!
!	!	!	!	!	!	!	!	!	!	!	!	!	!	!	!	!	!LO:SIC:s=8g#X\J):v	!	!	!	!LO:SIC:s=8b\J):v	!	!	!	!	!	!	!	!	!	!	!	!	!	!	!
8EE/J	#	.	8E/J	.	16c#/	.	16a/	.	.	.	.	.	.	.	.	.	8g#X\J	.	.	.	8b\J	.	.	.	.	.	8e\J	8e\J	8b\J	.	8gg#\J	.	8b\J	.	8gg\J	.
!	!	!	!	!	!	!	!LO:SIC:v:s=16g#/JJ	!	!	!	!	!	!	!	!	!	!	!	!	!	!	!	!	!	!	!	!	!	!	!	!	!	!	!	!	!
.	.	.	.	.	16B/JJ	.	16g/JJ	.	.	.	.	.	.	.	.	.	.	.	.	.	.	.	.	.	.	.	.	.	.	.	.	.	.	.	.	.
!	!	!	!	!	!	!	!	!	!	!	!	!	!	!	!	!	!	!	!	!	!LO:LB:g=original	!	!	!	!	!	!	!	!	!	!	!	!	!	!	!
=16	=16	=16	=16	=16	=16	=16	=16	=16	=16	=16	=16	=16	=16	=16	=16	=16	=16	=16	=16	=16	=16	=16	=16	=16	=16	=16	=16	=16	=16	=16	=16	=16	=16	=16	=16	=16
!	!	!	!LO:MO:mod=!null:null	!	!	!	!LO:MO:mod=!null:null	!	!	!	!	!	!	!	!	!	!	!	!	!	!	!	!	!	!	!	!	!	!	!	!	!	!	!	!	!
!	!	!LO:DY:a	!LO:TX:a:i:t=Solo&colon;	!	!	!	!LO:TX:a:i:t=Solo&colon;	!	!	!	!	!	!	!	!	!	!	!	!	!	!	!	!	!	!	!	!	!	!	!	!	!	!	!	!	!
8AA/	.	p	(16A/LL	.	(16c#/LL	.	16a\LL	.	4AA/	.	-bis	-bis.	4e\	.	-bis	-bis.	4a\	.	-bis	-bis.	4cc#\	.	-bis	-bis.	2r	.	4A/	4e\	4cc#\	.	4aa\	.	4cc#\	.	4aa\	.
.	.	.	16c#/)	.	16e/)	.	16cc#\JJ	.	.	.	.	.	.	.	.	.	.	.	.	.	.	.	.	.	.	.	.	.	.	.	.	.	.	.	.	.
8r	.	.	(16A/	.	(16c#/	.	4ee\	.	.	.	.	.	.	.	.	.	.	.	.	.	.	.	.	.	.	.	.	.	.	.	.	.	.	.	.	.
.	.	.	16c#/JJ)	.	16e/JJ)	.	.	.	.	.	.	.	.	.	.	.	.	.	.	.	.	.	.	.	.	.	.	.	.	.	.	.	.	.	.	.
8AA/	.	.	(16A/LL	.	(16c#/LL	.	.	.	4r	.	.	.	4r	.	.	.	4r	.	.	.	4r	.	.	.	.	.	4r	4r	4r	.	4r	.	4r	.	4r	.
.	.	.	16c#/)	.	16e/)	.	.	.	.	.	.	.	.	.	.	.	.	.	.	.	.	.	.	.	.	.	.	.	.	.	.	.	.	.	.	.
8r	.	.	(16A/	.	(16c#/	.	(32dd\LLL	.	.	.	.	.	.	.	.	.	.	.	.	.	.	.	.	.	.	.	.	.	.	.	.	.	.	.	.	.
.	.	.	.	.	.	.	32cc#\	.	.	.	.	.	.	.	.	.	.	.	.	.	.	.	.	.	.	.	.	.	.	.	.	.	.	.	.	.
.	.	.	16c#/JJ)	.	16e/JJ)	.	32b\	.	.	.	.	.	.	.	.	.	.	.	.	.	.	.	.	.	.	.	.	.	.	.	.	.	.	.	.	.
.	.	.	.	.	.	.	32a\JJJ)	.	.	.	.	.	.	.	.	.	.	.	.	.	.	.	.	.	.	.	.	.	.	.	.	.	.	.	.	.
!	!	!	!	!	!LO:LB:g=original	!	!	!	!	!	!	!	!	!	!	!	!	!	!	!	!	!	!	!	!	!	!	!	!	!	!	!	!	!	!	!
=17	=17	=17	=17	=17	=17	=17	=17	=17	=17	=17	=17	=17	=17	=17	=17	=17	=17	=17	=17	=17	=17	=17	=17	=17	=17	=17	=17	=17	=17	=17	=17	=17	=17	=17	=17	=17
!	!	!	!	!	!	!	!	!	!	!	!	!	!	!	!	!	!	!	!	!	!LO:MO:mod=!null:null	!	!	!	!	!	!	!	!	!	!	!	!	!	!	!
!	!	!	!	!	!	!	!	!	!	!	!	!	!	!	!	!	!	!	!	!	!LO:TX:a:i:t=Solo&colon;	!	!	!	!	!	!	!	!	!	!	!	!	!	!	!
8E\	#_	.	(16G#X/LL	.	(16B/LL	.	16b\LL	.	1r	.	.	.	0r	.	.	.	0r	.	.	.	1r	.	.	.	2r	.	0r	0r	1r	.	1r	.	1r	.	1r	.
.	.	.	16B/)	.	16e/)	.	16dd\JJ	.	.	.	.	.	.	.	.	.	.	.	.	.	.	.	.	.	.	.	.	.	.	.	.	.	.	.	.	.
8r	.	.	(16G#/	.	(16B/	.	4dd\	.	.	.	.	.	.	.	.	.	.	.	.	.	.	.	.	.	.	.	.	.	.	.	.	.	.	.	.	.
.	.	.	16B/JJ)	.	16e/JJ)	.	.	.	.	.	.	.	.	.	.	.	.	.	.	.	.	.	.	.	.	.	.	.	.	.	.	.	.	.	.	.
8E\	.	.	(16G#/LL	.	(16B/LL	.	.	.	.	.	.	.	.	.	.	.	.	.	.	.	.	.	.	.	.	.	.	.	.	.	.	.	.	.	.	.
.	.	.	16B/)	.	16e/)	.	.	.	.	.	.	.	.	.	.	.	.	.	.	.	.	.	.	.	.	.	.	.	.	.	.	.	.	.	.	.
8r	x	.	(16G#/	.	(16B/	.	(32ee\LLL	.	.	.	.	.	.	.	.	.	.	.	.	.	.	.	.	.	.	.	.	.	.	.	.	.	.	.	.	.
.	.	.	.	.	.	.	32ff#\	.	.	.	.	.	.	.	.	.	.	.	.	.	.	.	.	.	.	.	.	.	.	.	.	.	.	.	.	.
.	.	.	16B/JJ)	.	16e/JJ)	.	32ee\	.	.	.	.	.	.	.	.	.	.	.	.	.	.	.	.	.	.	.	.	.	.	.	.	.	.	.	.	.
.	.	.	.	.	.	.	32dd\JJJ)	.	.	.	.	.	.	.	.	.	.	.	.	.	.	.	.	.	.	.	.	.	.	.	.	.	.	.	.	.
=18	=18	=18	=18	=18	=18	=18	=18	=18	=18	=18	=18	=18	=18	=18	=18	=18	=18	=18	=18	=18	=18	=18	=18	=18	=18	=18	=18	=18	=18	=18	=18	=18	=18	=18	=18	=18
8A\	.	.	(16A/LL	.	(16c#/LL	.	16dd\LL	.	.	.	.	.	.	.	.	.	.	.	.	.	.	.	.	.	2r	.	.	.	.	.	.	.	.	.	.	.
.	.	.	16c#/)	.	16e/)	.	16cc#\J	.	.	.	.	.	.	.	.	.	.	.	.	.	.	.	.	.	.	.	.	.	.	.	.	.	.	.	.	.
8r	.	.	(16A/	.	(16c#/	.	8cc#\J	.	.	.	.	.	.	.	.	.	.	.	.	.	.	.	.	.	.	.	.	.	.	.	.	.	.	.	.	.
.	.	.	16c#/JJ)	.	16e/JJ)	.	.	.	.	.	.	.	.	.	.	.	.	.	.	.	.	.	.	.	.	.	.	.	.	.	.	.	.	.	.	.
8AA/	.	.	(16A/LL	.	(16c#/LL	.	16r	.	.	.	.	.	.	.	.	.	.	.	.	.	.	.	.	.	.	.	.	.	.	.	.	.	.	.	.	.
.	.	.	16c#/)	.	16e/)	.	16ee\	.	.	.	.	.	.	.	.	.	.	.	.	.	.	.	.	.	.	.	.	.	.	.	.	.	.	.	.	.
8r	.	.	(16A/	.	(16c#/	.	(32dd\LLL	.	.	.	.	.	.	.	.	.	.	.	.	.	.	.	.	.	.	.	.	.	.	.	.	.	.	.	.	.
.	.	.	.	.	.	.	32cc#\	.	.	.	.	.	.	.	.	.	.	.	.	.	.	.	.	.	.	.	.	.	.	.	.	.	.	.	.	.
.	.	.	16c#/JJ)	.	16e/JJ)	.	32b\	.	.	.	.	.	.	.	.	.	.	.	.	.	.	.	.	.	.	.	.	.	.	.	.	.	.	.	.	.
.	.	.	.	.	.	.	32cc#\JJJ)	.	.	.	.	.	.	.	.	.	.	.	.	.	.	.	.	.	.	.	.	.	.	.	.	.	.	.	.	.
!LO:LB:g=original	!	!	!	!	!	!	!	!	!	!	!	!	!	!	!	!	!	!	!	!	!	!	!	!	!	!	!	!	!	!	!	!	!	!	!	!
=19	=19	=19	=19	=19	=19	=19	=19	=19	=19	=19	=19	=19	=19	=19	=19	=19	=19	=19	=19	=19	=19	=19	=19	=19	=19	=19	=19	=19	=19	=19	=19	=19	=19	=19	=19	=19
!	!	!	!	!	!	!	!	!	!LO:MO:mod=!null:null	!	!	!	!	!	!	!	!	!	!	!	!	!	!	!	!	!	!	!	!	!	!	!	!	!	!	!
!	!	!	!	!	!LO:TUP:b:problem=klamra łukowa, łuczek zamiast numeru	!	!	!	!LO:TX:a:i:t=Solo&colon;	!	!	!	!	!	!	!	!	!	!	!	!	!	!	!	!	!	!	!	!	!	!	!	!	!	!	!
8D\	6	.	8F#/L	.	24d/LL	.	8b\L	.	2r	.	.	.	.	.	.	.	.	.	.	.	2r	.	.	.	2r	.	.	.	2r	.	2r	.	2r	.	2r	.
.	.	.	.	.	24c#/	.	.	.	.	.	.	.	.	.	.	.	.	.	.	.	.	.	.	.	.	.	.	.	.	.	.	.	.	.	.	.
.	.	.	.	.	24d/JJ	.	.	.	.	.	.	.	.	.	.	.	.	.	.	.	.	.	.	.	.	.	.	.	.	.	.	.	.	.	.	.
!	!	!	!	!	!LO:TUP:b:problem=klamra łukowa, łuczek zamiast numeru	!	!LO:TUP:a:problem=klamra łukowa, łuczek zamiast numeru	!	!	!	!	!	!	!	!	!	!	!	!	!	!	!	!	!	!	!	!	!	!	!	!	!	!	!	!	!
8r	.	.	8F#/	.	24f#/LL	.	24dd\L	.	.	.	.	.	.	.	.	.	.	.	.	.	.	.	.	.	.	.	.	.	.	.	.	.	.	.	.	.
.	.	.	.	.	24e/	.	24cc#\	.	.	.	.	.	.	.	.	.	.	.	.	.	.	.	.	.	.	.	.	.	.	.	.	.	.	.	.	.
.	.	.	.	.	24d/JJ	.	24b\JJ	.	.	.	.	.	.	.	.	.	.	.	.	.	.	.	.	.	.	.	.	.	.	.	.	.	.	.	.	.
!LO:TX:t=P:problem=mixed beam	!	!	!	!	!	!LO:LB:g=original	!	!	!	!	!	!	!	!	!	!	!	!	!	!	!	!	!	!	!	!	!	!	!	!	!	!	!	!	!	!
8E\L	4	.	8E/	.	8c#/L	.	8a/L	.	.	.	.	.	.	.	.	.	.	.	.	.	.	.	.	.	.	.	.	.	.	.	.	.	.	.	.	.
8EE/J	#	.	8E/J	.	8B/J	.	8g#X/J	.	.	.	.	.	.	.	.	.	.	.	.	.	.	.	.	.	.	.	.	.	.	.	.	.	.	.	.	.
!	!	!	!LO:LB:g=original	!	!	!	!	!	!	!	!	!	!	!	!	!	!	!	!	!	!	!	!	!	!	!	!	!	!LO:LB:g=original	!	!	!	!	!	!	!
=20	=20	=20	=20	=20	=20	=20	=20	=20	=20	=20	=20	=20	=20	=20	=20	=20	=20	=20	=20	=20	=20	=20	=20	=20	=20	=20	=20	=20	=20	=20	=20	=20	=20	=20	=20	=20
*	*	*	*	*	*	*	*	*	*2\right	*	*	*	*	*	*	*	*	*	*	*	*2\right	*	*	*	*	*	*	*	*	*	*	*	*	*	*	*
!	!	!	!	!	!	!	!	!	!	!	!	!	!	!	!	!	!	!	!	!	!	!	!	!	!	!	!	!	!LO:MO:mod=!null:null	!	!LO:MO:mod=!null:null	!	!LO:MO:mod=!null:null	!	!LO:MO:mod=!null:null	!
!	!	!	!	!LO:DY:a	!	!LO:DY:a	!	!LO:DY:a	!	!	!	!	!	!	!	!	!	!	!	!	!	!	!	!	!	!	!	!	!LO:TX:a:i:t=Solo&colon;	!	!LO:TX:a:i:t=Solo&colon;:rj	!	!LO:TX:a:i:t=Solo&colon;	!	!LO:TX:a:t=Solo&colon;:i	!
8AA/L	.	.	8A/L	p	(16c#/LL	p	(16e/LL	p	2c#\	.	A-	A-	.	.	.	.	.	.	.	.	2ee\	.	A-	A-	2r	.	.	.	2cc#\	.	2ee\	.	2cc#\	.	2ee\	.
.	.	.	.	.	16A/J)	.	16c#/J)	.	.	.	.	.	.	.	.	.	.	.	.	.	.	.	.	.	.	.	.	.	.	.	.	.	.	.	.	.
8AA/	.	.	8A/	.	8c#/J	.	8e/J	.	.	.	.	.	.	.	.	.	.	.	.	.	.	.	.	.	.	.	.	.	.	.	.	.	.	.	.	.
8AA/	.	.	8A/	.	16r	.	16r	.	.	.	.	.	.	.	.	.	.	.	.	.	.	.	.	.	.	.	.	.	.	.	.	.	.	.	.	.
.	.	.	.	.	(16c#|/LL	.	(16e|/LL	.	.	.	.	.	.	.	.	.	.	.	.	.	.	.	.	.	.	.	.	.	.	.	.	.	.	.	.	.
8AA/J	.	.	8A/J	.	16c#|/	.	16e|/	.	.	.	.	.	.	.	.	.	.	.	.	.	.	.	.	.	.	.	.	.	.	.	.	.	.	.	.	.
.	.	.	.	.	16c#|/JJ)	.	16e|/JJ)	.	.	.	.	.	.	.	.	.	.	.	.	.	.	.	.	.	.	.	.	.	.	.	.	.	.	.	.	.
=21	=21	=21	=21	=21	=21	=21	=21	=21	=21	=21	=21	=21	=21	=21	=21	=21	=21	=21	=21	=21	=21	=21	=21	=21	=21	=21	=21	=21	=21	=21	=21	=21	=21	=21	=21	=21
*2\right	*	*	*	*	*	*	*	*	*	*	*	*	*	*	*	*	*	*	*	*	*	*	*	*	*	*	*	*	*	*	*	*	*	*	*	*
*tremolo	*	*	*tremolo	*	*	*	*	*	*	*	*	*	*	*	*	*	*	*	*	*	*	*	*	*	*	*	*	*	*	*	*	*	*	*	*	*
8E\L	#	.	8G#X/L	.	(16B/LL	.	(16d/LL	.	2B\	.	-gnus	-gnus	0r	.	.	.	0r	.	.	.	2dd\	.	-gnus	-gnus	2r	.	0r	0r	2b\	.	2dd\	.	2b\	.	2dd\	.
.	.	.	.	.	16G#X/J)	.	16B/J)	.	.	.	.	.	.	.	.	.	.	.	.	.	.	.	.	.	.	.	.	.	.	.	.	.	.	.	.	.
8E\	.	.	8G#/	.	8B|/J	.	8d|/J	.	.	.	.	.	.	.	.	.	.	.	.	.	.	.	.	.	.	.	.	.	.	.	.	.	.	.	.	.
8E\	.	.	8G#/	.	16r	.	16r	.	.	.	.	.	.	.	.	.	.	.	.	.	.	.	.	.	.	.	.	.	.	.	.	.	.	.	.	.
.	.	.	.	.	(16B|/LL	.	(16d|/LL	.	.	.	.	.	.	.	.	.	.	.	.	.	.	.	.	.	.	.	.	.	.	.	.	.	.	.	.	.
8E\J	.	.	8G#/J	.	16B|/	.	16d|/	.	.	.	.	.	.	.	.	.	.	.	.	.	.	.	.	.	.	.	.	.	.	.	.	.	.	.	.	.
.	.	.	.	.	16B|/JJ)	.	16d|/JJ)	.	.	.	.	.	.	.	.	.	.	.	.	.	.	.	.	.	.	.	.	.	.	.	.	.	.	.	.	.
*Xtremolo	*	*	*Xtremolo	*	*	*	*	*	*	*	*	*	*	*	*	*	*	*	*	*	*	*	*	*	*	*	*	*	*	*	*	*	*	*	*	*
!	!	!	!	!	!	!	!	!	!	!	!	!	!	!	!	!	!	!	!	!	!	!	!	!	!	!	!	!	!	!	!	!	!	!	!LO:LB:g=original	!
=22	=22	=22	=22	=22	=22	=22	=22	=22	=22	=22	=22	=22	=22	=22	=22	=22	=22	=22	=22	=22	=22	=22	=22	=22	=22	=22	=22	=22	=22	=22	=22	=22	=22	=22	=22	=22
!LO:TX:t=P:problem=mixed beam	!	!	!	!	!	!	!	!	!	!	!	!	!	!	!	!	!	!	!	!	!	!	!	!	!	!	!	!	!	!	!	!	!	!	!	!
8A\L	.	.	8E/L	.	(16A/LL	.	(16c#/LL	.	4A\	.	de-	De-	.	.	.	.	.	.	.	.	4cc#\	.	de-	De-	2r	.	.	.	4a\	.	4cc#\	.	4a/	.	4cc#\	.
.	.	.	.	.	16B/J	.	16d/J	.	.	.	.	.	.	.	.	.	.	.	.	.	.	.	.	.	.	.	.	.	.	.	.	.	.	.	.	.
8AA/J	.	.	8E/	.	8c#/J)	.	8e/J)	.	.	.	.	.	.	.	.	.	.	.	.	.	.	.	.	.	.	.	.	.	.	.	.	.	.	.	.	.
!	!	!	!	!	!LO:LB:g=original	!	!	!	!	!	!	!	!	!	!	!	!	!	!	!	!	!	!	!	!	!	!	!	!	!	!	!	!	!	!	!
8D\L	6	.	8F#/	.	16r	.	16r	.	8B\	.	-i	-i,	.	.	.	.	.	.	.	.	8dd\	.	-i	-i,	.	.	.	.	8b\L	.	8dd\L	.	8b/L	.	8dd\L	.
.	.	.	.	.	16B/LL	.	16d/LL	.	.	.	.	.	.	.	.	.	.	.	.	.	.	.	.	.	.	.	.	.	.	.	.	.	.	.	.	.
!	!	!	!	!	!LO:SIC:s=16G#:v	!	!LO:SIC:s=16B/:v	!	!	!	!	!	!	!	!	!	!	!	!	!	!	!	!	!	!	!	!	!	!	!	!	!	!	!	!	!
8E\J	#	.	8E/J	.	16A/	.	16c#/	.	8G#X\	.	qui	qui	.	.	.	.	.	.	.	.	8b\	.	qui	qui	.	.	.	.	8g#\J	.	8b\J	.	8g#X/J	.	8b\J	.
!	!	!	!	!	!LO:SIC:s=16G#/JJ:v	!	!	!	!	!	!	!	!	!	!	!	!	!	!	!	!	!	!	!	!	!	!	!	!	!	!	!	!	!	!	!
.	.	.	.	.	16G#X/JJ	.	16B/JJ	.	.	.	.	.	.	.	.	.	.	.	.	.	.	.	.	.	.	.	.	.	.	.	.	.	.	.	.	.
=23	=23	=23	=23	=23	=23	=23	=23	=23	=23	=23	=23	=23	=23	=23	=23	=23	=23	=23	=23	=23	=23	=23	=23	=23	=23	=23	=23	=23	=23	=23	=23	=23	=23	=23	=23	=23
!LO:TX:t=P:problem=mixed beam	!	!	!	!	!	!	!	!	!	!	!	!	!	!	!	!	!	!	!	!	!	!	!	!	!	!	!	!	!	!	!	!	!	!	!	!
!	!	!	!	!	!	!	!LO:SIC:s=16c#/LL:v	!	!	!	!	!	!	!	!	!	!	!	!	!	!	!	!	!	!	!	!	!	!	!	!	!	!	!	!	!
16A\LL	.	.	16E/LL	.	16A/LL	.	(16c#/LL	.	8A\	.	tol-	tol-	.	.	.	.	.	.	.	.	8cc#\	.	tol-	tol-	2r	.	.	.	4a\	.	4cc#\	.	4a/	.	4cc#\	.
!	!	!	!	!	!	!	!LO:SIC:s=(16e/|:v	!	!	!	!	!	!	!	!	!	!	!	!	!	!	!	!	!	!	!	!	!	!	!	!	!	!	!	!	!
16AA/	.	.	16A/	.	(16c#|/	.	16e/)	.	.	.	.	.	.	.	.	.	.	.	.	.	.	.	.	.	.	.	.	.	.	.	.	.	.	.	.	.
16AA/	.	.	16A/	.	16c#|/	.	16e|/	.	8A\	.	-lis	-lis	.	.	.	.	.	.	.	.	8cc#\	.	-lis	-lis	.	.	.	.	.	.	.	.	.	.	.	.
!	!	!	!	!	!	!	!LO:SIC:s=16e|/JJ):v	!	!	!	!	!	!	!	!	!	!	!	!	!	!	!	!	!	!	!	!	!	!	!	!	!	!	!	!	!
16AA/JJ	.	.	16A/JJ	.	16c#|/JJ)	.	16e|/JJ	.	.	.	.	.	.	.	.	.	.	.	.	.	.	.	.	.	.	.	.	.	.	.	.	.	.	.	.	.
!	!	!	!	!	!	!	!	!	!LO:LB:g=original	!	!	!	!	!	!	!	!	!	!	!	!	!	!	!	!	!	!	!	!	!	!	!	!LO:LB:g=original	!	!	!
4AA/	.	.	4A/	.	4c#|/	.	4e|/	.	16r	.	.	.	.	.	.	.	.	.	.	.	16r	.	.	.	.	.	.	.	16r	.	16r	.	16r	.	16r	.
.	.	.	.	.	.	.	.	.	16c#\	.	pec-	pec-	.	.	.	.	.	.	.	.	16ee\	.	pec-	pec-	.	.	.	.	16cc#|\LL	.	16ee|\LL	.	16cc#|\LL	.	16ee|\LL	.
.	.	.	.	.	.	.	.	.	16c#\	.	-ca-	-ca-	.	.	.	.	.	.	.	.	16ee\	.	-ca-	-ca-	.	.	.	.	16cc#|\	.	16ee|\	.	16cc#|\	.	16ee|\	.
.	.	.	.	.	.	.	.	.	16c#\	.	-ta	-ta	.	.	.	.	.	.	.	.	16ee\	.	-ta	-ta	.	.	.	.	16cc#|\JJ	.	16ee|\JJ	.	16cc#|\JJ	.	16ee|\JJ	.
=24	=24	=24	=24	=24	=24	=24	=24	=24	=24	=24	=24	=24	=24	=24	=24	=24	=24	=24	=24	=24	=24	=24	=24	=24	=24	=24	=24	=24	=24	=24	=24	=24	=24	=24	=24	=24
16r	.	.	16r	.	16r	.	16r	.	16c#\LL	.	mun-	mun-	.	.	.	.	.	.	.	.	16ee\LL	.	mun-	mun-	2r	.	.	.	(16cc#\LL	.	(16ee\LL	.	(16cc#\LL	.	(16ee\LL	.
16AA/LL	.	.	16A/LL	.	(16c#|/LL	.	(16e|/LL	.	16B\JJ	.	.	.	.	.	.	.	.	.	.	.	16dd\JJ	.	.	.	.	.	.	.	16b\J)	.	16dd\J)	.	16b\J)	.	16dd\J)	.
16AA/	.	.	16A/	.	16c#|/	.	16e|/	.	8A\	.	-di	-di,	.	.	.	.	.	.	.	.	8cc#\	.	-di	-di,	.	.	.	.	8a|\J	.	8cc#|\J	.	8a|\J	.	8cc#|\J	.
16AA/JJ	.	.	16A/JJ	.	16c#|/JJ)	.	16e|/JJ)	.	.	.	.	.	.	.	.	.	.	.	.	.	.	.	.	.	.	.	.	.	.	.	.	.	.	.	.	.
4AA/	.	.	4A/	.	4c#|/	.	4e|/	.	16r	.	.	.	.	.	.	.	.	.	.	.	16r	.	.	.	.	.	.	.	16r	.	16r	.	16r	.	16r	.
*	*	*	*	*	*	*	*	*	*	*	*ij	*ij	*	*	*	*	*	*	*	*	*	*	*	*	*	*	*	*	*	*	*	*	*	*	*	*
.	.	.	.	.	.	.	.	.	16c#\	.	pec-	pec-	.	.	.	.	.	.	.	.	16ee\	.	pec-	pec-	.	.	.	.	16cc#|\LL	.	16ee|\LL	.	16cc#|\LL	.	16ee|\LL	.
.	.	.	.	.	.	.	.	.	16c#\	.	-ca-	-ca-	.	.	.	.	.	.	.	.	16ee\	.	-ca-	-ca-	.	.	.	.	16cc#|\	.	16ee|\	.	16cc#|\	.	16ee|\	.
.	.	.	.	.	.	.	.	.	16c#\	.	-ta	-ta	.	.	.	.	.	.	.	.	16ee\	.	-ta	-ta	.	.	.	.	16cc#|\JJ	.	16ee|\JJ	.	16cc#|\JJ	.	16ee|\JJ	.
!	!	!	!	!	!	!	!	!	!	!	!	!	!	!	!	!	!	!	!	!	!LO:LB:g=original	!	!	!	!	!	!	!	!	!	!LO:LB:g=original	!	!	!	!	!
=25	=25	=25	=25	=25	=25	=25	=25	=25	=25	=25	=25	=25	=25	=25	=25	=25	=25	=25	=25	=25	=25	=25	=25	=25	=25	=25	=25	=25	=25	=25	=25	=25	=25	=25	=25	=25
16r	.	.	16r	.	16r	.	16r	.	16c#\LL	.	mun-	mun-	1r	.	.	.	1r	.	.	.	16ee\LL	.	mun-	mun-	2r	.	0r	0r	(16cc#\LL	.	(16ee\LL	.	(16cc#\LL	.	(16ee\LL	.
16AA/LL	.	.	16A/LL	.	(16c#|/LL	.	(16e|/LL	.	16B\JJ	.	.	.	.	.	.	.	.	.	.	.	16dd\JJ	.	.	.	.	.	.	.	16b\J)	.	16dd\J)	.	16b\J)	.	16dd\J)	.
16AA/	.	.	16A/	.	16c#|/	.	16e|/	.	8A\	.	-di	-di,	.	.	.	.	.	.	.	.	8cc#\	.	-di	-di,	.	.	.	.	8a|\J	.	8cc#|\J	.	8a|\J	.	8cc#|\J	.
*	*	*	*	*	*	*	*	*	*	*	*Xij	*Xij	*	*	*	*	*	*	*	*	*	*	*	*	*	*	*	*	*	*	*	*	*	*	*	*
16AA/JJ	.	.	16A/JJ	.	16c#|/JJ)	.	16e|/JJ)	.	.	.	.	.	.	.	.	.	.	.	.	.	.	.	.	.	.	.	.	.	.	.	.	.	.	.	.	.
4AA/	.	.	4A/	.	4c#|/	.	4e/	.	16r	.	.	.	.	.	.	.	.	.	.	.	16r	.	.	.	.	.	.	.	16r	.	16r	.	16r	.	16r	.
.	.	.	.	.	.	.	.	.	16c#\	.	tol-	tol-	.	.	.	.	.	.	.	.	16ee\	.	tol-	tol-	.	.	.	.	16cc#|\LL	.	16ee|\LL	.	16cc#|\LL	.	16ee|\LL	.
.	.	.	.	.	.	.	.	.	16c#\	.	-lis	-lis	.	.	.	.	.	.	.	.	16ee\	.	-lis	-lis	.	.	.	.	16cc#|\	.	16ee|\	.	16cc#|\	.	16ee|\	.
.	.	.	.	.	.	.	.	.	16c#\	.	pec-	pec-	.	.	.	.	.	.	.	.	16ee\	.	pec-	pec-	.	.	.	.	16cc#|\JJ	.	16ee|\JJ	.	16cc#|\JJ	.	16ee|\JJ	.
!	!	!	!	!	!	!	!LO:LB:g=original	!	!	!	!	!	!	!	!	!	!	!	!	!	!	!	!	!	!	!	!	!	!	!	!	!	!	!	!	!
=26	=26	=26	=26	=26	=26	=26	=26	=26	=26	=26	=26	=26	=26	=26	=26	=26	=26	=26	=26	=26	=26	=26	=26	=26	=26	=26	=26	=26	=26	=26	=26	=26	=26	=26	=26	=26
16r	.	.	16r	.	16r	.	16r	.	(4c#\	.	-ca-	-ca-	.	.	.	.	.	.	.	.	(4ee\	.	-ca-	-ca-	2r	.	.	.	4cc#\	.	4ee\	.	4cc#\	.	4ee\	.
16AA/LL	.	.	16A/LL	.	(16c#|/LL	.	(16e|/LL	.	.	.	.	.	.	.	.	.	.	.	.	.	.	.	.	.	.	.	.	.	.	.	.	.	.	.	.	.
16AA/	.	.	16A/	.	16c#|/	.	16e|/	.	.	.	.	.	.	.	.	.	.	.	.	.	.	.	.	.	.	.	.	.	.	.	.	.	.	.	.	.
16AA/JJ	.	.	16A/JJ	.	16c#|/JJ)	.	16e|/JJ)	.	.	.	.	.	.	.	.	.	.	.	.	.	.	.	.	.	.	.	.	.	.	.	.	.	.	.	.	.
!	!	!	!	!	!LO:SIC:s=(16B/LL|:v	!	!	!	!	!	!	!	!	!	!	!	!	!	!	!	!	!	!	!	!	!	!	!	!	!	!	!	!	!	!	!
16D\LL	6_	.	16F#/LL	.	16B/LL	.	(16d|/LL	.	8B\)	.	.	.	.	.	.	.	.	.	.	.	8dd\)	.	.	.	.	.	.	.	8b\L	.	8dd\L	.	8b\L	.	8dd\L	.
!	!	!	!	!	!LO:SIC:s=16B/|:v	!	!	!	!	!	!	!	!	!	!	!	!	!	!	!	!	!	!	!	!	!	!	!	!	!	!	!	!	!	!	!
16D\	.	.	16F#/	.	16B/	.	16d|/	.	.	.	.	.	.	.	.	.	.	.	.	.	.	.	.	.	.	.	.	.	.	.	.	.	.	.	.	.
!	!	!	!	!	!LO:SIC:s=16A/|:v	!	!	!	!	!	!	!	!	!	!	!	!	!	!	!	!	!	!	!	!	!	!	!	!	!	!	!	!	!	!	!
16D#X\	5_	.	16F#/	.	16A/	.	16c#|/	.	8A\	.	-ta	-ta	.	.	.	.	.	.	.	.	8cc#\	.	-ta	-ta	.	.	.	.	8a\J	.	8cc#\J	.	8a\J	.	8cc#\J	.
!	!	!	!	!	!LO:SIC:s=16A/JJ|):v	!	!	!	!	!	!	!	!	!	!	!	!	!	!	!	!	!	!	!	!	!	!	!	!	!	!	!	!	!	!	!
16D#\JJ	.	.	16F#/JJ	.	16A/JJ	.	16c#|/JJ)	.	.	.	.	.	.	.	.	.	.	.	.	.	.	.	.	.	.	.	.	.	.	.	.	.	.	.	.	.
!	!	!	!LO:LB:g=original	!	!	!	!	!	!LO:LB:g=original	!	!	!	!	!	!	!	!	!	!	!	!	!	!	!	!	!	!	!	!	!	!	!	!	!	!	!
=27	=27	=27	=27	=27	=27	=27	=27	=27	=27	=27	=27	=27	=27	=27	=27	=27	=27	=27	=27	=27	=27	=27	=27	=27	=27	=27	=27	=27	=27	=27	=27	=27	=27	=27	=27	=27
!LO:TX:t=P:problem=mixed beam	!	!	!	!	!	!	!	!	!	!	!	!	!	!	!	!	!	!	!	!	!	!	!	!	!	!	!	!	!	!	!	!	!	!	!	!LO:DY:a
!	!	!	!	!	!	!	!	!	!	!	!	!	!	!	!	!	!	!	!	!	!	!	!	!	!	!	!	!	!	!	!	!	!	!	!	!LO:MO:mod=!null:null
!	!	!	!	!	!LO:SIC:s=(16B/LL:v	!	!	!	!	!	!	!	!	!	!	!	!	!	!	!	!	!	!	!	!	!	!	!	!	!	!	!	!	!	!	!
!	!	!	!	!	!	!	!LO:SIC:s=(16B/LL:v	!	!	!	!	!	!	!	!	!	!	!	!	!	!	!	!	!	!	!	!	!	!	!	!	!	!	!	!	!
8E\L	#	.	8E/L	.	16B/LL	.	16B/LL	.	8G#X\	.	mun-	mun-	2r	.	.	.	2r	.	.	.	8b\	.	mun-	mun-	2r	.	.	.	4g#\	.	4b\	.	4g#X/	.	4b\	f
!	!	!	!	!	!	!	!LO:SIC:s=16g#X/:v	!	!	!	!	!	!	!	!	!	!	!	!	!	!	!	!	!	!	!	!	!	!	!	!	!	!	!	!	!
.	.	.	.	.	16g#X/	.	(16g#X/	.	.	.	.	.	.	.	.	.	.	.	.	.	.	.	.	.	.	.	.	.	.	.	.	.	.	.	.	.
8EE/J	.	.	8E/J	.	16b/	.	16b/	.	8G#\	.	-di	-di,	.	.	.	.	.	.	.	.	8b\	.	-di	-di,	.	.	.	.	.	.	.	.	.	.	.	.
!	!	!	!	!	!LO:SIC:s=16ee/JJ):v	!	!	!	!	!	!	!	!	!	!	!	!	!	!	!	!	!	!	!	!	!	!	!	!	!	!	!	!	!	!	!
.	.	.	.	.	16ee/JJ	.	16ee/JJ)	.	.	.	.	.	.	.	.	.	.	.	.	.	.	.	.	.	.	.	.	.	.	.	.	.	.	.	.	.
!	!	!	!	!	!LO:SIC:s=(16gg#y\LL:v	!	!	!	!	!	!	!	!	!	!	!	!	!	!	!	!	!	!	!	!	!	!	!	!	!	!	!	!	!	!	!
4r	.	.	4r	.	16gg#y\LL	.	(16gg#y\LL	.	4r	.	.	.	.	.	.	.	.	.	.	.	4r	.	.	.	.	.	.	.	4r	.	4r	.	4r	.	4r	.
.	.	.	.	.	16bb\	.	16bb\	.	.	.	.	.	.	.	.	.	.	.	.	.	.	.	.	.	.	.	.	.	.	.	.	.	.	.	.	.
.	.	.	.	.	16gg#y\	.	16gg#y\	.	.	.	.	.	.	.	.	.	.	.	.	.	.	.	.	.	.	.	.	.	.	.	.	.	.	.	.	.
!	!	!	!	!	!	!LO:DY:a	!	!LO:DY:a:t=for	!	!	!	!	!	!	!	!	!	!	!	!	!	!	!	!	!	!	!	!	!	!	!	!	!	!	!	!
!	!	!	!	!	!	!LO:MO:mod=!null:null	!	!LO:MO:mod=!null:null	!	!	!	!	!	!	!	!	!	!	!	!	!	!	!	!	!	!	!	!	!	!	!	!	!	!	!	!
!	!	!	!	!	!LO:SIC:s=16ee\JJ):v	!	!	!	!	!	!	!	!	!	!	!	!	!	!	!	!	!	!	!	!	!	!	!	!	!	!	!	!	!	!	!
.	.	.	.	.	16ee\JJ	f	16ee\JJ)	f	.	.	.	.	.	.	.	.	.	.	.	.	.	.	.	.	.	.	.	.	.	.	.	.	.	.	.	.
!LO:LB:g=original	!	!	!	!	!	!	!	!	!	!	!	!	!	!	!	!	!	!	!	!	!	!	!	!	!	!	!	!	!LO:LB:g=original	!	!	!	!	!	!	!
=28	=28	=28	=28	=28	=28	=28	=28	=28	=28	=28	=28	=28	=28	=28	=28	=28	=28	=28	=28	=28	=28	=28	=28	=28	=28	=28	=28	=28	=28	=28	=28	=28	=28	=28	=28	=28
!LO:MO:mod=!LO&colon;TX&colon;a&colon;i&colon;t=Tutti	!	!	!	!	!	!	!	!	!	!	!	!	!	!	!	!	!	!	!	!	!	!	!	!	!	!	!	!	!	!	!	!	!	!	!	!
!LO:TX:a:i:t=[t]utti	!	!	!	!LO:DY:a	!	!	!	!	!	!	!	!	!	!	!	!	!	!	!	!	!	!	!	!	!	!	!	!	!	!LO:DY:a	!	!LO:DY:a	!	!LO:DY:a	!	!
!	!	!	!	!	!	!	!	!	!	!	!	!	!	!	!	!	!	!	!	!	!	!	!	!	!	!	!	!	!	!	!	!	!	!	!	!LO:DY:t= :mod=%s
!	!	!	!	!	!	!	!	!	!	!	!	!	!	!	!	!	!	!	!	!	!	!	!	!	!	!	!	!	!	!	!	!	!	!	!	!LO:MO:mod=!LO&colon;DY&colon;ed=
!	!	!	!	!	!	!LO:DY:t= :mod=%s	!	!LO:DY:t= :mod=%s	!	!	!	!	!	!	!	!	!	!	!	!	!	!	!	!	!	!	!	!	!	!	!	!	!	!	!	!
!	!	!	!	!	!	!LO:MO:mod=!LO&colon;DY&colon;ed=	!	!LO:MO:mod=!LO&colon;DY&colon;ed=	!	!	!	!	!	!	!	!	!	!	!	!	!	!	!	!	!	!	!	!	!	!	!	!	!	!	!	!
!	!	!	!	!	!	!null	!	!null	!	!	!	!	!	!	!	!	!	!	!	!	!LO:SIC:s=(8dd#X\L:v	!	!	!	!	!	!	!	!	!	!	!	!	!	!	!null
!	!	!	!	!	!	!	!	!	!LO:SIC:s=(8A\L:v	!	!	!	!LO:SIC:s=(8f#\L:v	!	!	!	!	!	!	!	!	!	!	!	!	!	!	!	!	!	!	!	!	!	!	!
8A\L	r#4 2	.	8B/L	f	(16dd#X\LL	f	(16dd#X\LL	f	8A\L	.	mi-	mi-	8f#\L	.	mi-	Mi-	4.b\	.	mi-	Mi-	8dd#X\L	.	mi-	mi-	2r	.	.	.	2b\	f	2b\	f	2b\	f	2bb\	f
.	.	.	.	.	16ff#\)	.	16ff#\)	.	.	.	.	.	.	.	.	.	.	.	.	.	.	.	.	.	.	.	.	.	.	.	.	.	.	.	.	.
!	!	!	!	!	!	!	!	!	!	!	!	!	!LO:SIC:s=8e\J:v	!	!	!	!	!	!	!	!LO:SIC:s=8ee\J:v	!	!	!	!	!	!	!	!	!	!	!	!	!	!	!
!	!	!	!	!	!	!	!	!	!LO:SIC:s=8Gn\J:v	!	!	!	!	!	!	!	!	!	!	!	!	!	!	!	!	!	!	!	!	!	!	!	!	!	!	!
8Gn\	6	.	8B/J	.	(16ee\	.	(16ee\	.	(8Gn\J	.	.	.	(8e\J	.	.	.	.	.	.	.	(8ee\J	.	.	.	.	.	.	.	.	.	.	.	.	.	.	.
.	.	.	.	.	16ggn\JJ)	.	16ggn\JJ)	.	.	.	.	.	.	.	.	.	.	.	.	.	.	.	.	.	.	.	.	.	.	.	.	.	.	.	.	.
!	!	!	!	!	!LO:LB:g=original	!	!	!	!	!	!	!	!	!	!	!	!	!	!	!	!	!	!	!	!	!	!	!	!	!	!	!	!	!	!	!
8F#\	6\	.	8d#X\L	.	(16ff#\LL	.	(16ff#\LL	.	8F#\)	.	.	.	8d#X\)	.	.	.	.	.	.	.	8ff#\)	.	.	.	.	.	.	.	.	.	.	.	.	.	.	.
.	.	.	.	.	16aa\)	.	16aa\)	.	.	.	.	.	.	.	.	.	.	.	.	.	.	.	.	.	.	.	.	.	.	.	.	.	.	.	.	.
8E\J	n	.	8e\J	.	(16gg\	.	(16gg\	.	8E\	.	-ſe-	-se-	8e\	.	-ſe-	-se-	8b\	.	-ſe-	-se-	8ggn\	.	-ſe-	-se-	.	.	.	.	.	.	.	.	.	.	.	.
.	.	.	.	.	16bb\JJ)	.	16bb\JJ)	.	.	.	.	.	.	.	.	.	.	.	.	.	.	.	.	.	.	.	.	.	.	.	.	.	.	.	.	.
!	!	!	!	!	!	!	!	!	!	!	!	!	!LO:LB:g=original	!	!	!	!	!	!	!	!	!	!	!	!	!	!	!	!	!	!	!	!	!	!	!
=29	=29	=29	=29	=29	=29	=29	=29	=29	=29	=29	=29	=29	=29	=29	=29	=29	=29	=29	=29	=29	=29	=29	=29	=29	=29	=29	=29	=29	=29	=29	=29	=29	=29	=29	=29	=29
8D#X\L	6 5	.	8f#\L	.	(16aa\LL	.	(16aa\LL	.	8D#X\	.	-re-	-re-	8f#\	.	-re-	-re-	8b\	.	-re-	-re-	8aa\	.	-re-	-re-	2r	.	1r	1r	8b\L	.	8b\L	.	8b\L	.	8bb\L	.
.	.	.	.	.	16bb\)	.	16bb\)	.	.	.	.	.	.	.	.	.	.	.	.	.	.	.	.	.	.	.	.	.	.	.	.	.	.	.	.	.
8E\J	.	.	8e\J	.	(16gg\	.	(16gg\	.	8E\	.	-re	-re,	8e\	.	-re	-re,	8b\	.	-re	-re,	8gg\	.	-re	-re,	.	.	.	.	8b\J	.	8b\J	.	8b\J	.	8bb\J	.
.	.	.	.	.	16bb\JJ)	.	16bb\JJ)	.	.	.	.	.	.	.	.	.	.	.	.	.	.	.	.	.	.	.	.	.	.	.	.	.	.	.	.	.
4r	.	.	4r	.	(16ee\LL	.	(16ee\LL	.	4r	.	.	.	4r	.	.	.	4r	.	.	.	4r	.	.	.	.	.	.	.	4r	.	4r	.	4r	.	4r	.
.	.	.	.	.	16bb\JJ)	.	16bb\JJ)	.	.	.	.	.	.	.	.	.	.	.	.	.	.	.	.	.	.	.	.	.	.	.	.	.	.	.	.	.
.	.	.	.	.	(32aa\LLL	.	(32aa\LLL	.	.	.	.	.	.	.	.	.	.	.	.	.	.	.	.	.	.	.	.	.	.	.	.	.	.	.	.	.
.	.	.	.	.	32gg\	.	32gg\	.	.	.	.	.	.	.	.	.	.	.	.	.	.	.	.	.	.	.	.	.	.	.	.	.	.	.	.	.
.	.	.	.	.	32ff#\	.	32ff#\	.	.	.	.	.	.	.	.	.	.	.	.	.	.	.	.	.	.	.	.	.	.	.	.	.	.	.	.	.
.	.	.	.	.	32ee\JJJ)	.	32ee\JJJ)	.	.	.	.	.	.	.	.	.	.	.	.	.	.	.	.	.	.	.	.	.	.	.	.	.	.	.	.	.
!	!	!	!	!	!	!	!	!	!	!	!	!	!	!	!	!	!LO:LB:g=original	!	!	!	!	!	!	!	!	!	!	!	!	!	!	!	!	!	!	!
=30	=30	=30	=30	=30	=30	=30	=30	=30	=30	=30	=30	=30	=30	=30	=30	=30	=30	=30	=30	=30	=30	=30	=30	=30	=30	=30	=30	=30	=30	=30	=30	=30	=30	=30	=30	=30
!	!	!	!	!	!	!	!	!	!LO:SIC:s=(8G\L:v	!	!	!	!LO:SIC:s=(8e\L:v	!	!	!	!	!	!	!	!LO:SIC:s=(8cc#\L:v	!	!	!	!	!	!	!	!	!	!	!	!	!	!	!
8G\L	4 2	.	8A/L	.	(16cc#\LL	.	(16cc#\LL	.	8G\L	.	mi-	mi-	8e\L	.	mi-	mi-	4.a\	.	mi-	mi-	8cc#\L	.	mi-	mi-	2r	.	.	.	2a\	.	2a\	.	2a/	.	2aa\	.
.	.	.	.	.	16ee\)	.	16ee\)	.	.	.	.	.	.	.	.	.	.	.	.	.	.	.	.	.	.	.	.	.	.	.	.	.	.	.	.	.
!	!	!	!	!	!	!	!	!	!LO:SIC:s=8F#\J:v	!	!	!	!LO:SIC:s=8dn\J:v	!	!	!	!	!	!	!	!LO:SIC:s=8ddn\J:v	!	!	!	!	!	!	!	!	!	!	!	!	!	!	!
8F#\	rn6	.	8A/	.	(16ddn\	.	(16dd\	.	(8F#\J	.	.	.	(8dn\J	.	.	.	.	.	.	.	(8ddn\J	.	.	.	.	.	.	.	.	.	.	.	.	.	.	.
.	.	.	.	.	16ff#\JJ)	.	16ff#\JJ)	.	.	.	.	.	.	.	.	.	.	.	.	.	.	.	.	.	.	.	.	.	.	.	.	.	.	.	.	.
8E\	6	.	8c#/	.	(16ee\LL	.	(16ee\LL	.	8E\)	.	.	.	8c#\)	.	.	.	.	.	.	.	8ee\)	.	.	.	.	.	.	.	.	.	.	.	.	.	.	.
.	.	.	.	.	16gg\)	.	16gg\)	.	.	.	.	.	.	.	.	.	.	.	.	.	.	.	.	.	.	.	.	.	.	.	.	.	.	.	.	.
8Dn\J	.	.	8dn/J	.	(16ff#\	.	(16ff#\	.	8Dn\	.	-ſe-	-se-	8d\	.	-ſe-	-se-	8a\	.	-ſe-	-se-	8ff#\	.	-ſe-	-se-	.	.	.	.	.	.	.	.	.	.	.	.
.	.	.	.	.	16aa\JJ)	.	16aa\JJ)	.	.	.	.	.	.	.	.	.	.	.	.	.	.	.	.	.	.	.	.	.	.	.	.	.	.	.	.	.
!	!	!	!	!	!	!	!LO:LB:g=original	!	!	!	!	!	!	!	!	!	!	!	!	!	!LO:LB:g=original	!	!	!	!	!	!	!	!	!	!	!	!	!	!LO:LB:g=original	!
=31	=31	=31	=31	=31	=31	=31	=31	=31	=31	=31	=31	=31	=31	=31	=31	=31	=31	=31	=31	=31	=31	=31	=31	=31	=31	=31	=31	=31	=31	=31	=31	=31	=31	=31	=31	=31
8C#\L	6 5	.	8e\L	.	(16gg\LL	.	(16gg\LL	.	8C#/	.	-re-	-re-	8e\	.	-re-	-re-	8a\	.	-re-	-re-	8gg\	.	-re-	-re-	2r	.	2r	2r	8a\L	.	8a\L	.	8a/L	.	8aa\L	.
.	.	.	.	.	16aa\)	.	16aa\)	.	.	.	.	.	.	.	.	.	.	.	.	.	.	.	.	.	.	.	.	.	.	.	.	.	.	.	.	.
8D\J	.	.	8d\J	.	(16ff#\	.	(16ff#\	.	8D\	.	-re	-re,	8d\	.	-re	-re,	8a\	.	-re	-re,	8ff#\	.	-re	-re,	.	.	.	.	8a\J	.	8a\J	.	8a/J	.	8aa\J	.
.	.	.	.	.	16aa\JJ)	.	16aa\JJ)	.	.	.	.	.	.	.	.	.	.	.	.	.	.	.	.	.	.	.	.	.	.	.	.	.	.	.	.	.
!	!	!	!LO:MO:mod=!null:null	!	!	!	!	!	!	!	!	!	!	!	!	!	!	!	!	!	!	!	!	!	!	!	!	!	!	!	!	!	!	!	!	!
!	!	!	!LO:TX:b:i:t=Verte	!	!	!	!	!	!	!	!	!	!	!	!	!	!	!	!	!	!	!	!	!	!	!	!	!	!	!	!	!	!	!	!	!
4r	.	.	4r	.	(16dd\LL	.	(16dd\LL	.	4r	.	.	.	4r	.	.	.	4r	.	.	.	4r	.	.	.	.	.	.	.	4r	.	4r	.	4r	.	4r	.
.	.	.	.	.	16aa\JJ)	.	16aa\JJ)	.	.	.	.	.	.	.	.	.	.	.	.	.	.	.	.	.	.	.	.	.	.	.	.	.	.	.	.	.
.	.	.	.	.	(32gg\LLL	.	(32gg\LLL	.	.	.	.	.	.	.	.	.	.	.	.	.	.	.	.	.	.	.	.	.	.	.	.	.	.	.	.	.
.	.	.	.	.	32ff#\	.	32ff#\	.	.	.	.	.	.	.	.	.	.	.	.	.	.	.	.	.	.	.	.	.	.	.	.	.	.	.	.	.
.	.	.	.	.	32ee\	.	32ee\	.	.	.	.	.	.	.	.	.	.	.	.	.	.	.	.	.	.	.	.	.	.	.	.	.	.	.	.	.
.	.	.	.	.	32dd\JJJ)	.	32dd\JJJ)	.	.	.	.	.	.	.	.	.	.	.	.	.	.	.	.	.	.	.	.	.	.	.	.	.	.	.	.	.
!	!	!	!LO:PB:g=original	!	!	!	!	!	!	!	!	!	!	!	!	!	!	!	!	!	!	!	!	!	!	!	!LO:LB:g=original	!LO:LB:g=original	!	!	!	!	!	!	!	!
=32	=32	=32	=32	=32	=32	=32	=32	=32	=32	=32	=32	=32	=32	=32	=32	=32	=32	=32	=32	=32	=32	=32	=32	=32	=32	=32	=32	=32	=32	=32	=32	=32	=32	=32	=32	=32
*	*	*	*	*	*	*	*	*	*	*	*	*	*	*	*ij	*ij	*	*	*ij	*ij	*	*	*	*	*	*	*	*	*	*	*	*	*	*	*	*
8F#\L	6_	.	8A/L	.	(16cc#\LL	.	(16cc#\LL	.	4F#\	.	mi-	mi-	4d\	.	mi-	mi-	4a\	.	mi-	mi-	4dd\	.	mi-	mi-	2r	.	4d\	4f#\	4dd\	.	4aa\	.	4dd\	.	4aa\	.
.	.	.	.	.	16dd\J)	.	16dd\J)	.	.	.	.	.	.	.	.	.	.	.	.	.	.	.	.	.	.	.	.	.	.	.	.	.	.	.	.	.
8F#\	.	.	8A/	.	8dd\J	.	8dd|\J	.	.	.	.	.	.	.	.	.	.	.	.	.	.	.	.	.	.	.	.	.	.	.	.	.	.	.	.	.
8G\	6_ 5_	.	8B/	.	16r	.	16r	.	4G\	.	-ſe-	-se-	4d\	.	-ſe-	-se-	4b\	.	-ſe-	-se-	4ee\	.	-ſe-	-se-	.	.	4e\	4g\	4ee\	.	4gg\	.	4ee\	.	4gg\	.
.	.	.	.	.	16ee|\LL	.	16ee|\LL	.	.	.	.	.	.	.	.	.	.	.	.	.	.	.	.	.	.	.	.	.	.	.	.	.	.	.	.	.
8G\J	.	.	8B/J	.	(16ee\	.	(16ee\	.	.	.	.	.	.	.	.	.	.	.	.	.	.	.	.	.	.	.	.	.	.	.	.	.	.	.	.	.
.	.	.	.	.	16dd\JJ)	.	16dd\JJ)	.	.	.	.	.	.	.	.	.	.	.	.	.	.	.	.	.	.	.	.	.	.	.	.	.	.	.	.	.
!	!	!	!	!	!	!	!	!	!LO:LB:g=original	!	!	!	!	!	!	!	!	!	!	!	!	!	!	!	!	!	!	!	!	!	!	!	!LO:LB:g=original	!	!	!
=33	=33	=33	=33	=33	=33	=33	=33	=33	=33	=33	=33	=33	=33	=33	=33	=33	=33	=33	=33	=33	=33	=33	=33	=33	=33	=33	=33	=33	=33	=33	=33	=33	=33	=33	=33	=33
8A\L	3_	.	8e\L	.	(16dd\LL	.	(16dd\LL	.	4A\	.	-re-	-re-	4A\	.	-re-	-re-	4cc#\	.	-re-	-re-	4ee\	.	-re-	-re-	2r	.	4A/	4e\	4ee\	.	4gg\	.	4ee\	.	4gg\	.
.	.	.	.	.	16cc#\J)	.	16cc#\J)	.	.	.	.	.	.	.	.	.	.	.	.	.	.	.	.	.	.	.	.	.	.	.	.	.	.	.	.	.
8A\	.	.	8e\	.	8cc#|\J	.	8cc#|\J	.	.	.	.	.	.	.	.	.	.	.	.	.	.	.	.	.	.	.	.	.	.	.	.	.	.	.	.	.
!	!	!	!	!	!LO:LB:g=original	!	!	!	!	!	!	!	!	!	!	!	!	!	!	!	!	!	!	!	!	!	!	!	!	!	!	!	!	!	!	!
8B\	x	.	8d\	.	16r	.	16r	.	4B\	.	-re	-re	4B\	.	-re	-re	4dd\	.	-re	-re	4ff#\	.	-re	-re	.	.	4d\	4f#\	4dd\	.	4ff#\	.	4dd\	.	4ff#\	.
*	*	*	*	*	*	*	*	*	*	*	*	*	*	*	*Xij	*Xij	*	*	*Xij	*Xij	*	*	*	*	*	*	*	*	*	*	*	*	*	*	*	*
!	!	!	!	!	!LO:SIC:s=(16dd\LL:v	!	!	!	!	!	!	!	!	!	!	!	!	!	!	!	!	!	!	!	!	!	!	!	!	!	!	!	!	!	!	!
.	.	.	.	.	16dd\LL	.	(16dd\LL	.	.	.	.	.	.	.	.	.	.	.	.	.	.	.	.	.	.	.	.	.	.	.	.	.	.	.	.	.
8B\J	.	.	8d\J	.	16cc#\	.	16ee\	.	.	.	.	.	.	.	.	.	.	.	.	.	.	.	.	.	.	.	.	.	.	.	.	.	.	.	.	.
!	!	!	!	!	!LO:SIC:s=16dd\JJ):v	!	!	!	!	!	!	!	!	!	!	!	!	!	!	!	!	!	!	!	!	!	!	!	!	!	!	!	!	!	!	!
.	.	.	.	.	16dd\JJ	.	16ff#\JJ)	.	.	.	.	.	.	.	.	.	.	.	.	.	.	.	.	.	.	.	.	.	.	.	.	.	.	.	.	.
!	!	!	!	!	!	!	!	!	!	!	!	!	!	!	!	!	!	!	!	!	!	!	!	!	!	!	!	!	!	!	!LO:LB:g=original	!	!	!	!	!
=34	=34	=34	=34	=34	=34	=34	=34	=34	=34	=34	=34	=34	=34	=34	=34	=34	=34	=34	=34	=34	=34	=34	=34	=34	=34	=34	=34	=34	=34	=34	=34	=34	=34	=34	=34	=34
!LO:TX:t=P:problem=mixed beam	!	!	!	!	!	!	!	!	!	!	!	!	!	!	!	!	!	!	!	!	!	!	!	!	!	!	!	!	!	!	!	!	!	!	!	!
!	!	!	!	!	!	!	!	!	!LO:SIC:s=(4G\:v	!	!	!	!	!	!	!	!LO:SIC:s=(4g\:v	!	!	!	!LO:SIC:s=(4ee\:v	!	!	!	!	!	!	!	!	!	!	!	!	!	!	!
8G\L	6_	.	8B/L	.	8b/L	.	16ee\LL	.	4G\	.	no-	no-	(4B\	.	no-	no-	4g\	.	no-	no-	4ee\	.	no-	no-	2r	.	4e\	4g\	4ee\	.	4gg\	.	4ee\	.	4gg\	.
.	.	.	.	.	.	.	16gg\	.	.	.	.	.	.	.	.	.	.	.	.	.	.	.	.	.	.	.	.	.	.	.	.	.	.	.	.	.
8G\	.	.	8B/	.	16a/L	.	16ff#\	.	.	.	.	.	.	.	.	.	.	.	.	.	.	.	.	.	.	.	.	.	.	.	.	.	.	.	.	.
.	.	.	.	.	16g/JJ	.	16ee\JJ	.	.	.	.	.	.	.	.	.	.	.	.	.	.	.	.	.	.	.	.	.	.	.	.	.	.	.	.	.
!	!	!	!	!	!LO:SIC:s=16a/LL:v	!	!LO:SIC:s=16ff#\LL:v	!	!LO:TX:t=P:problem=mixed beam	!	!	!	!	!	!	!	!	!	!	!	!	!	!	!	!	!	!	!	!	!	!	!	!	!	!	!
8A\	4	.	8A/	.	16g/LL	.	16ee\LL	.	8A\L	.	.	.	4A\)	.	.	.	8f#\L	.	.	.	8dd\L	.	.	.	.	.	8d\L	8f#\L	8dd\L	.	8ff#\L	.	8dd\L	.	8ff#\L	.
!	!	!	!	!	!	!	!LO:MO:mod=!null:null	!	!	!	!	!	!	!	!	!	!	!	!	!	!	!	!	!	!	!	!	!	!	!	!	!	!	!	!	!
!	!	!	!	!	!	!	!LO:TX:a:i:t=Solo.	!	!	!	!	!	!	!	!	!	!	!	!	!	!	!	!	!	!	!	!	!	!	!	!	!	!	!	!	!
.	.	.	.	.	16f#/	.	16dd\	.	.	.	.	.	.	.	.	.	.	.	.	.	.	.	.	.	.	.	.	.	.	.	.	.	.	.	.	.
!	!	!	!	!	!	!	!	!	!	!	!	!	!	!	!	!	!LO:SIC:s=8e\J):v	!	!	!	!LO:SIC:s=8cc#\J):v	!	!	!	!	!	!	!	!	!	!	!	!	!	!	!
!	!	!	!	!	!LO:SIC:s=16e/:v	!	!LO:SIC:s=16cc#\:v	!	!LO:SIC:s=8AA/J):v	!	!	!	!	!	!	!	!	!	!	!	!	!	!	!	!	!	!	!	!	!	!	!	!	!	!	!
8AA/J	3	.	8A/J	.	16f#/	.	16dd\	.	8AA/J	.	.	.	.	.	.	.	8e\J	.	.	.	8cc#\J	.	.	.	.	.	8A\J	8e\J	8cc#\J	.	8ee\J	.	8cc#\J	.	8ee\J	.
.	.	.	.	.	16e/JJ	.	16cc#\JJ	.	.	.	.	.	.	.	.	.	.	.	.	.	.	.	.	.	.	.	.	.	.	.	.	.	.	.	.	.
=35	=35	=35	=35	=35	=35	=35	=35	=35	=35	=35	=35	=35	=35	=35	=35	=35	=35	=35	=35	=35	=35	=35	=35	=35	=35	=35	=35	=35	=35	=35	=35	=35	=35	=35	=35	=35
!	!	!	!	!	!	!	!LO:MO:mod=!null:null	!	!	!	!	!	!	!	!	!	!	!	!	!	!	!	!	!	!	!	!	!	!	!	!	!	!	!	!	!
!	!	!LO:DY:a	!	!	!	!	!LO:TX:a:i:t=dol&colon;:rj	!	!	!	!	!	!	!	!	!	!	!	!	!	!	!	!	!	!	!	!	!	!	!	!	!	!	!	!	!
8D\	.	p	(16A\LL	.	(16f#/LL	.	4dd\	.	4D\	.	-bis	-bis.	4A\	.	-bis	-bis.	4f#\	.	-bis	-bis.	4dd\	.	-bis	-bis.	2r	.	4F#/	4d\	4dd\	.	4ff#\	.	4dd\	.	4ff#\	.
.	.	.	16f#\)	.	16a/)	.	.	.	.	.	.	.	.	.	.	.	.	.	.	.	.	.	.	.	.	.	.	.	.	.	.	.	.	.	.	.
8r	.	.	(16A\	.	(16f#/	.	.	.	.	.	.	.	.	.	.	.	.	.	.	.	.	.	.	.	.	.	.	.	.	.	.	.	.	.	.	.
.	.	.	16f#\JJ)	.	16a/JJ)	.	.	.	.	.	.	.	.	.	.	.	.	.	.	.	.	.	.	.	.	.	.	.	.	.	.	.	.	.	.	.
8D\	.	.	(16A\LL	.	(16f#/LL	.	(8.ddd\L	.	4r	.	.	.	4r	.	.	.	4r	.	.	.	4r	.	.	.	.	.	4r	4r	4r	.	4r	.	4r	.	4r	.
.	.	.	16f#\)	.	16a/)	.	.	.	.	.	.	.	.	.	.	.	.	.	.	.	.	.	.	.	.	.	.	.	.	.	.	.	.	.	.	.
8r	.	.	(16A\	.	(16f#/	.	.	.	.	.	.	.	.	.	.	.	.	.	.	.	.	.	.	.	.	.	.	.	.	.	.	.	.	.	.	.
.	.	.	16f#\JJ)	.	16a/JJ)	.	16cccn\Jk)	.	.	.	.	.	.	.	.	.	.	.	.	.	.	.	.	.	.	.	.	.	.	.	.	.	.	.	.	.
=36	=36	=36	=36	=36	=36	=36	=36	=36	=36	=36	=36	=36	=36	=36	=36	=36	=36	=36	=36	=36	=36	=36	=36	=36	=36	=36	=36	=36	=36	=36	=36	=36	=36	=36	=36	=36
!	!	!	!	!	!	!	!	!	!	!	!	!	!	!	!	!	!	!	!	!	!LO:MO:mod=!null:null	!	!	!	!	!	!	!	!	!	!	!	!	!	!	!
!	!	!	!	!	!	!	!LO:SIC:v:s=(16cccn\LL	!	!	!	!	!	!	!	!	!	!	!	!	!	!LO:TX:b:t=3:color=grey	!	!	!	!	!	!	!	!	!	!	!	!	!	!	!
8D\	6_ 4_	.	(16B\LL	.	(16g/LL	.	(16ccc#\LL	.	1r	.	.	.	1r	.	.	.	1r	.	.	.	1r	.	.	.	2r	.	1r	1r	1r	.	1r	.	1r	.	1r	.
.	.	.	16g\)	.	16b/)	.	16bb\JJ)	.	.	.	.	.	.	.	.	.	.	.	.	.	.	.	.	.	.	.	.	.	.	.	.	.	.	.	.	.
8r	.	.	(16B\	.	(16g/	.	4bb\	.	.	.	.	.	.	.	.	.	.	.	.	.	.	.	.	.	.	.	.	.	.	.	.	.	.	.	.	.
.	.	.	16g\JJ)	.	16b/JJ)	.	.	.	.	.	.	.	.	.	.	.	.	.	.	.	.	.	.	.	.	.	.	.	.	.	.	.	.	.	.	.
8D\	.	.	(16B\LL	.	(16g/LL	.	.	.	.	.	.	.	.	.	.	.	.	.	.	.	.	.	.	.	.	.	.	.	.	.	.	.	.	.	.	.
.	.	.	16g\)	.	16b/)	.	.	.	.	.	.	.	.	.	.	.	.	.	.	.	.	.	.	.	.	.	.	.	.	.	.	.	.	.	.	.
8r	.	.	(16B\	.	(16g/	.	(16ddd\LL	.	.	.	.	.	.	.	.	.	.	.	.	.	.	.	.	.	.	.	.	.	.	.	.	.	.	.	.	.
.	.	.	16g\JJ)	.	16b/JJ)	.	16bb\JJ)	.	.	.	.	.	.	.	.	.	.	.	.	.	.	.	.	.	.	.	.	.	.	.	.	.	.	.	.	.
!	!	!	!	!	!	!	!LO:LB:g=original	!	!	!	!	!	!	!	!	!	!	!	!	!	!	!	!	!	!	!	!	!	!	!	!	!	!	!	!	!
=37	=37	=37	=37	=37	=37	=37	=37	=37	=37	=37	=37	=37	=37	=37	=37	=37	=37	=37	=37	=37	=37	=37	=37	=37	=37	=37	=37	=37	=37	=37	=37	=37	=37	=37	=37	=37
8D\	3_	.	(16A\LL	.	(16f#/LL	.	(16bb\LL	.	.	.	.	.	.	.	.	.	.	.	.	.	.	.	.	.	2r	.	.	.	.	.	.	.	.	.	.	.
.	.	.	16f#\)	.	16a/)	.	16aa\J)	.	.	.	.	.	.	.	.	.	.	.	.	.	.	.	.	.	.	.	.	.	.	.	.	.	.	.	.	.
8r	.	.	(16A\	.	(16f#/	.	8.aaT\J	.	.	.	.	.	.	.	.	.	.	.	.	.	.	.	.	.	.	.	.	.	.	.	.	.	.	.	.	.
.	.	.	16f#\JJ)	.	16a/JJ)	.	.	.	.	.	.	.	.	.	.	.	.	.	.	.	.	.	.	.	.	.	.	.	.	.	.	.	.	.	.	.
8D\	.	.	(16A\LL	.	(16f#/LL	.	.	.	.	.	.	.	.	.	.	.	.	.	.	.	.	.	.	.	.	.	.	.	.	.	.	.	.	.	.	.
.	.	.	16f#\)	.	16a/)	.	(32bb\LLL	.	.	.	.	.	.	.	.	.	.	.	.	.	.	.	.	.	.	.	.	.	.	.	.	.	.	.	.	.
.	.	.	.	.	.	.	32aa\	.	.	.	.	.	.	.	.	.	.	.	.	.	.	.	.	.	.	.	.	.	.	.	.	.	.	.	.	.
8r	.	.	(16A\	.	(16f#/	.	32gg\	.	.	.	.	.	.	.	.	.	.	.	.	.	.	.	.	.	.	.	.	.	.	.	.	.	.	.	.	.
.	.	.	.	.	.	.	32ff#\	.	.	.	.	.	.	.	.	.	.	.	.	.	.	.	.	.	.	.	.	.	.	.	.	.	.	.	.	.
.	.	.	16f#\JJ)	.	16a/JJ)	.	32ee\	.	.	.	.	.	.	.	.	.	.	.	.	.	.	.	.	.	.	.	.	.	.	.	.	.	.	.	.	.
.	.	.	.	.	.	.	32dd\JJJ)	.	.	.	.	.	.	.	.	.	.	.	.	.	.	.	.	.	.	.	.	.	.	.	.	.	.	.	.	.
!LO:LB:g=original	!	!	!LO:LB:g=original	!	!	!	!	!	!	!	!	!	!	!	!	!	!	!	!	!	!	!	!	!	!	!	!	!	!	!	!	!	!	!	!	!
=38	=38	=38	=38	=38	=38	=38	=38	=38	=38	=38	=38	=38	=38	=38	=38	=38	=38	=38	=38	=38	=38	=38	=38	=38	=38	=38	=38	=38	=38	=38	=38	=38	=38	=38	=38	=38
!	!	!	!	!	!LO:TUP:b:problem=klamra łukowa, łuczek zamiast numeru	!	!LO:TUP:a:problem=klamra łukowa, łuczek zamiast numeru	!	!	!	!	!	!	!	!	!	!	!	!	!	!	!	!	!	!	!	!	!	!	!	!	!	!	!	!	!
8G\	6	.	8B/L	.	24g/LL	.	24ee\LL	.	2r	.	.	.	2r	.	.	.	2r	.	.	.	2r	.	.	.	2r	.	2r	2r	2r	.	2r	.	2r	.	2r	.
.	.	.	.	.	24f#/	.	24dd\	.	.	.	.	.	.	.	.	.	.	.	.	.	.	.	.	.	.	.	.	.	.	.	.	.	.	.	.	.
.	.	.	.	.	24g/JJ	.	24ee\JJ	.	.	.	.	.	.	.	.	.	.	.	.	.	.	.	.	.	.	.	.	.	.	.	.	.	.	.	.	.
!	!	!	!	!	!LO:TUP:b:problem=klamra łukowa, łuczek zamiast numeru	!	!LO:TUP:a:problem=klamra łukowa, łuczek zamiast numeru	!	!	!	!	!	!	!	!	!	!	!	!	!	!	!	!	!	!	!	!	!	!	!	!	!	!	!	!	!
8r	.	.	8B/	.	24b/LL	.	24gg\LL	.	.	.	.	.	.	.	.	.	.	.	.	.	.	.	.	.	.	.	.	.	.	.	.	.	.	.	.	.
.	.	.	.	.	24a/	.	24ff#\	.	.	.	.	.	.	.	.	.	.	.	.	.	.	.	.	.	.	.	.	.	.	.	.	.	.	.	.	.
.	.	.	.	.	24g/JJ	.	24ee\JJ	.	.	.	.	.	.	.	.	.	.	.	.	.	.	.	.	.	.	.	.	.	.	.	.	.	.	.	.	.
!LO:TX:t=P:problem=mixed beam	!	!	!	!	!	!	!	!	!	!	!	!	!	!	!	!	!	!	!	!	!	!	!	!	!	!	!	!	!	!	!	!	!	!	!	!
8A\L	4	.	8A/	.	8f#/L	.	8dd\L	.	.	.	.	.	.	.	.	.	.	.	.	.	.	.	.	.	.	.	.	.	.	.	.	.	.	.	.	.
8AA/J	3	.	8A/J	.	8e/J	.	8cc#\J	.	.	.	.	.	.	.	.	.	.	.	.	.	.	.	.	.	.	.	.	.	.	.	.	.	.	.	.	.
!	!	!	!	!	!LO:LB:g=original	!	!	!	!	!	!	!	!LO:LB:g=original	!	!	!	!	!	!	!	!	!	!	!	!	!	!	!	!	!	!	!	!	!	!	!
=39	=39	=39	=39	=39	=39	=39	=39	=39	=39	=39	=39	=39	=39	=39	=39	=39	=39	=39	=39	=39	=39	=39	=39	=39	=39	=39	=39	=39	=39	=39	=39	=39	=39	=39	=39	=39
*	*	*	*	*	*	*	*	*	*	*	*	*	*	*	*	*	*	*	*	*	*	*	*	*	*2\right	*	*	*	*	*	*	*	*	*	*	*
*	*	*	*tremolo	*	*	*	*	*	*	*	*	*	*	*	*	*	*	*	*	*	*	*	*	*	*tremolo	*	*	*	*	*	*	*	*	*	*	*
!LO:MO:mod=!LO&colon;TX&colon;a&colon;i&colon;t=Tutti	!	!	!	!	!	!	!	!	!	!	!	!	!	!	!	!	!	!	!	!	!	!	!	!	!	!LO:MO:mod=!null:null	!	!	!	!	!	!	!	!	!	!
!LO:TX:a:i:t=tutti	!	!	!	!LO:DY:a	!	!LO:DY:a	!	!LO:DY:a:rj	!	!	!	!	!	!	!	!	!	!	!	!	!	!	!	!	!LO:TX:t=P:global:problem=falująca linia nad tremolo	!LO:DY:t=p&colon;:rj	!	!	!	!	!	!	!	!	!	!
8D\L	.	.	8d\L	f	16f#\LL	f	16dd\LL	f	4D\	.	A-	A-	4d\	.	A-	A-	4a\	.	A-	A-	4ff#\	.	A-	A-	16D\LL	p	2d\	2f#\	2ff#\	.	2aa\	.	2ff#\	.	2aa\	.
.	.	.	.	.	16dd\J	.	16ff#\J	.	.	.	.	.	.	.	.	.	.	.	.	.	.	.	.	.	16D\	.	.	.	.	.	.	.	.	.	.	.
8D\	.	.	8d\	.	8ff#\J	.	8aa\J	.	.	.	.	.	.	.	.	.	.	.	.	.	.	.	.	.	16D\	.	.	.	.	.	.	.	.	.	.	.
.	.	.	.	.	.	.	.	.	.	.	.	.	.	.	.	.	.	.	.	.	.	.	.	.	16D\	.	.	.	.	.	.	.	.	.	.	.
8D\	.	.	8d\	.	16r	.	16r	.	4D\	.	-gnus	-gnus	4d\	.	-gnus	-gnus	4a\	.	-gnus	-gnus	4ff#\	.	-gnus	-gnus	16D\	.	.	.	.	.	.	.	.	.	.	.
!	!	!	!	!	!	!	!LO:SIC:s=(16aa|\LL:v	!	!	!	!	!	!	!	!	!	!	!	!	!	!	!	!	!	!	!	!	!	!	!	!	!	!	!	!	!
.	.	.	.	.	(16ff#|\LL	.	16aa|\LL	.	.	.	.	.	.	.	.	.	.	.	.	.	.	.	.	.	16D\	.	.	.	.	.	.	.	.	.	.	.
8D\J	.	.	8d\J	.	16ff#|\	.	16aa|\	.	.	.	.	.	.	.	.	.	.	.	.	.	.	.	.	.	16D\	.	.	.	.	.	.	.	.	.	.	.
!	!	!	!	!	!	!	!LO:SIC:s=16aa|\JJ):v	!	!	!	!	!	!	!	!	!	!	!	!	!	!	!	!	!	!	!	!	!	!	!	!	!	!	!	!	!
.	.	.	.	.	16ff#|\JJ)	.	16aa|\JJ	.	.	.	.	.	.	.	.	.	.	.	.	.	.	.	.	.	16D\JJ	.	.	.	.	.	.	.	.	.	.	.
=40	=40	=40	=40	=40	=40	=40	=40	=40	=40	=40	=40	=40	=40	=40	=40	=40	=40	=40	=40	=40	=40	=40	=40	=40	=40	=40	=40	=40	=40	=40	=40	=40	=40	=40	=40	=40
*tremolo	*	*	*	*	*	*	*	*	*	*	*	*	*	*	*	*	*	*	*	*	*	*	*	*	*	*	*	*	*	*	*	*	*	*	*	*
8A\L	7	.	8c#\L	.	(16ee\LL	.	(16gg\LL	.	4A\	.	de-	De-	4c#\	.	de-	De-	4g\	.	de-	De-	4ee\	.	de-	De-	16AA/LL	.	2A/	2e\	2ee\	.	2gg\	.	2ee\	.	2gg\	.
.	.	.	.	.	16cc#\J)	.	16ee\J)	.	.	.	.	.	.	.	.	.	.	.	.	.	.	.	.	.	16AA/	.	.	.	.	.	.	.	.	.	.	.
8A\	.	.	8c#\	.	8ee|\J	.	8gg|\J	.	.	.	.	.	.	.	.	.	.	.	.	.	.	.	.	.	16AA/	.	.	.	.	.	.	.	.	.	.	.
.	.	.	.	.	.	.	.	.	.	.	.	.	.	.	.	.	.	.	.	.	.	.	.	.	16AA/	.	.	.	.	.	.	.	.	.	.	.
8A\	.	.	8c#\	.	16r	.	16r	.	8A\	.	-i	-i,	8c#\	.	-i	-i,	8g\	.	-i	-i,	8ee\	.	-i	-i,	16AA/	.	.	.	.	.	.	.	.	.	.	.
.	.	.	.	.	(16ee|\LL	.	(16gg|\LL	.	.	.	.	.	.	.	.	.	.	.	.	.	.	.	.	.	16AA/	.	.	.	.	.	.	.	.	.	.	.
8A\J	.	.	8c#\J	.	16ee|\	.	16gg|\	.	8A\	.	qui	qui	8c#\	.	qui	qui	8g\	.	qui	qui	8ee\	.	qui	qui	16AA/	.	.	.	.	.	.	.	.	.	.	.
.	.	.	.	.	16ee|\JJ)	.	16gg|\JJ)	.	.	.	.	.	.	.	.	.	.	.	.	.	.	.	.	.	16AA/JJ	.	.	.	.	.	.	.	.	.	.	.
*Xtremolo	*	*	*Xtremolo	*	*	*	*	*	*	*	*	*	*	*	*	*	*	*	*	*	*	*	*	*	*Xtremolo	*	*	*	*	*	*	*	*	*	*	*
!	!	!	!	!	!	!	!	!	!	!	!	!	!	!	!	!	!LO:LB:g=original	!	!	!	!	!	!	!	!	!	!	!	!LO:LB:g=original	!	!	!	!	!	!	!
=41	=41	=41	=41	=41	=41	=41	=41	=41	=41	=41	=41	=41	=41	=41	=41	=41	=41	=41	=41	=41	=41	=41	=41	=41	=41	=41	=41	=41	=41	=41	=41	=41	=41	=41	=41	=41
!	!	!	!	!	!	!	!	!	!	!	!	!	!	!	!	!	!	!	!	!	!	!	!	!	!	!	!	!	!LO:MO:mod=!null:null	!	!	!	!	!	!	!
!	!	!	!	!	!	!	!	!	!	!	!	!	!	!	!	!	!LO:SIC:s=(16g\LL:v	!	!	!	!LO:SIC:s=(16ee\LL:v	!	!	!	!	!	!	!	!LO:TX:a:i:t=Solo&colon;	!	!	!	!	!	!	!
8d\L	.	.	8A/L	.	(16ee\LL	.	(16gg\LL	.	8d\	.	tol-	tol-	8A\	.	tol-	tol-	16g\LL	.	tol-	tol-	16ee\LL	.	tol-	tol-	8D\L	.	8F#/L	8d\L	8dd\L	.	8ff#\L	.	8dd\L	.	8ff#\L	.
!	!	!	!	!	!	!	!	!	!	!	!	!	!	!	!	!	!LO:SIC:s=16f#\JJ):v	!	!	!	!LO:SIC:s=16dd\JJ):v	!	!	!	!	!	!	!	!	!	!	!	!	!	!	!
.	.	.	.	.	16dd\J)	.	16ff#\J)	.	.	.	.	.	.	.	.	.	16f#\JJ	.	.	.	16dd\JJ	.	.	.	.	.	.	.	.	.	.	.	.	.	.	.
!	!	!	!	!	!	!	!	!	!	!	!	!	!	!	!	!	!LO:MO:mod=!null:null	!	!	!	!	!	!	!	!	!	!	!	!	!	!	!	!	!	!	!
!	!	!	!	!	!LO:SIC:s=8dd\J|:v	!	!	!	!	!	!	!	!	!	!	!	!LO:TX:a:i:t=Solo&colon;	!	!	!	!	!	!	!	!	!	!	!	!	!	!	!	!	!	!	!
8D\	.	.	8A/	.	8dd\J	.	8ff#|\J	.	8D\	.	-lis	-lis	8A\	.	-lis	-lis	8f#\	.	-lis	-lis,	8dd\	.	-lis	-lis,	8D\J	.	8F#/J	8d\J	8dd\J	.	8ff#\J	.	8dd\J	.	8ff#\J	.
!	!	!	!	!	!	!	!	!	!	!	!	!	!	!	!	!	!	!	!	!	!LO:LB:g=original	!	!	!	!	!	!	!	!	!	!LO:MO:mod=!null:null	!	!LO:MO:mod=!null:null	!	!LO:MO:mod=!null:null	!
!	!	!	!	!	!	!	!	!	!	!	!	!	!	!	!	!	!	!	!	!	!LO:MO:mod=!null:null	!	!	!	!	!	!	!	!	!	!	!	!	!	!	!
!	!	!	!	!	!	!	!	!	!	!	!	!	!	!	!	!	!	!	!	!	!LO:TX:a:i:t=Solo&colon;	!	!	!	!	!	!	!	!	!	!LO:TX:a:i:t=Solo&colon;	!	!LO:TX:a:i:t=Solo&colon;	!	!LO:TX:a:i:t=Solo&colon;	!
8D\J	.	.	8A/J	.	16r	.	8r	.	4r	.	.	.	4r	.	.	.	8r	.	.	.	8r	.	.	.	4r	.	4r	4r	8r	.	8r	.	8r	.	8r	.
!	!	!	!	!	!	!LO:DY:a	!	!	!	!	!	!	!	!	!	!	!	!	!	!	!	!	!	!	!	!	!	!	!	!	!	!	!	!	!	!
.	.	.	.	.	8.f#/	p	.	.	.	.	.	.	.	.	.	.	.	.	.	.	.	.	.	.	.	.	.	.	.	.	.	.	.	.	.	.
!	!	!	!	!	!	!	!	!LO:DY:a	!	!	!	!	!	!	!	!	!	!	!	!	!	!	!	!	!	!	!	!	!	!	!	!	!	!	!	!
8r	.	.	8r	.	.	.	8a/	p	.	.	.	.	.	.	.	.	8a\	.	qui	qui	8ff#\	.	qui	qui	.	.	.	.	8ff#\	.	8aa\	.	8ff#\	.	8aa\	.
=42	=42	=42	=42	=42	=42	=42	=42	=42	=42	=42	=42	=42	=42	=42	=42	=42	=42	=42	=42	=42	=42	=42	=42	=42	=42	=42	=42	=42	=42	=42	=42	=42	=42	=42	=42	=42
!	!	!	!	!LO:DY:a:t=p&colon;	!	!	!	!	!	!	!	!	!	!	!	!	!	!	!	!	!	!	!	!	!	!	!	!	!	!	!	!	!	!	!	!
!	!	!	!	!LO:MO:mod=!null:null	!	!	!	!	!	!	!	!	!	!	!	!	!	!	!	!	!	!	!	!	!	!	!	!	!	!	!	!	!	!	!	!
!	!	!	!	!	!	!	!	!	!	!	!	!	!	!	!	!	!	!	!	!	!LO:SIC:s=(8.ff#\L:v	!	!	!	!	!	!	!	!	!	!	!	!	!	!	!
!	!	!	!	!	!	!	!	!	!	!	!	!	!	!	!	!	!LO:SIC:s=(8.a\L:v	!	!	!	!	!	!	!	!	!	!	!	!	!	!	!	!	!	!	!
4r	.	.	8r	p	(8.f#/L	.	(8.a/L	.	4r	.	.	.	4r	.	.	.	8.a\L	.	tol-	tol-	8.ff#\L	.	tol-	tol-	4r	.	4r	4r	(8.ff#\L	.	(8.aa\L	.	(8.ff#\L	.	(8.aa\L	.
!	!	!	!	!LO:DY:t= :mod=%s	!	!	!	!	!	!	!	!	!	!	!	!	!	!	!	!	!	!	!	!	!	!	!	!	!	!	!	!	!	!	!	!
!	!	!	!	!LO:MO:mod=!LO&colon;DY&colon;ed=	!	!	!	!	!	!	!	!	!	!	!	!	!	!	!	!	!	!	!	!	!	!	!	!	!	!	!	!	!	!	!	!
!	!	!	!	!null	!	!	!	!	!	!	!	!	!	!	!	!	!	!	!	!	!	!	!	!	!	!	!	!	!	!	!	!	!	!	!	!
.	.	.	8d\L	p	.	.	.	.	.	.	.	.	.	.	.	.	.	.	.	.	.	.	.	.	.	.	.	.	.	.	.	.	.	.	.	.
!	!	!	!	!	!	!	!	!	!	!	!	!	!	!	!	!	!LO:SIC:s=16b\Jk):v	!	!	!	!LO:SIC:s=16gg\Jk):v	!	!	!	!	!	!	!	!	!	!	!	!	!	!	!
.	.	.	.	.	16g/K)	.	16b/K)	.	.	.	.	.	.	.	.	.	16b\Jk	.	.	.	16gg\Jk	.	.	.	.	.	.	.	16gg\K)	.	16bb\K)	.	16gg\K)	.	16bb\K)	.
!	!	!	!	!	!	!	!	!	!	!	!	!	!	!	!	!	!	!	!	!	!	!	!	!	!	!	!	!	!	!	!	!	!	!	!	!
!	!	!	!	!	!	!LO:DY:a:t=f&colon;	!	!	!	!	!	!	!	!	!	!	!	!	!	!	!	!	!	!	!	!	!	!	!	!	!	!	!	!	!	!
!	!	!	!	!	!	!LO:MO:mod=!null:null	!	!	!	!	!	!	!	!	!	!	!	!	!	!	!	!	!	!	!	!	!	!	!	!	!	!	!	!	!	!
8r	.	.	8d\	.	8f#/	f	8a/	.	8r	.	.	.	8r	.	.	.	8a\	.	-lis	-lis	8ff#\	.	-lis	-lis	8r	.	8r	8r	8ff#|\	.	8aa|\	.	8ff#|\	.	8aa|\	.
!	!	!	!	!LO:DY:a:t=f&colon;	!	!	!	!LO:DY:a	!	!	!	!	!	!	!	!	!	!	!	!	!	!LO:DY:a:t=f&colon;	!	!	!	!	!	!	!	!LO:DY:a:t=f&colon;	!	!LO:DY:a:t=f&colon;	!	!LO:DY:a:t=f&colon;	!	!LO:DY:a:t=f&colon;
!	!	!	!	!	!	!	!	!	!	!LO:DY:t= :mod=%s	!	!	!	!LO:DY:t= :mod=%s	!	!	!	!LO:DY:t= :mod=%s	!	!	!	!	!	!	!	!	!	!	!	!	!	!	!	!	!	!
!	!	!	!	!	!	!	!	!	!	!LO:MO:mod=!LO&colon;DY&colon;ed=brack	!	!	!	!LO:MO:mod=!LO&colon;DY&colon;ed=brack	!	!	!	!LO:MO:mod=!LO&colon;DY&colon;ed=brack	!	!	!	!	!	!	!	!	!	!	!	!	!	!	!	!	!	!
!	!	!	!	!	!	!LO:DY:t= :mod=%s	!	!	!	!	!	!	!	!	!	!	!	!	!	!	!	!	!	!	!	!	!	!	!	!	!	!	!	!	!	!
!	!	!	!	!	!	!LO:MO:mod=!LO&colon;DY&colon;ed=	!	!	!	!	!	!	!	!	!	!	!	!	!	!	!	!	!	!	!	!	!	!	!	!	!	!	!	!	!	!
!	!	!	!	!	!	!null	!	!	!	!null	!	!	!	!null	!	!	!	!null	!	!	!	!	!	!	!	!	!	!	!	!	!	!	!	!	!	!
8D\	.	.	8A\J	f	8d/J	f	8f#/J	f	8D\	f	pec-	pec-	8A\	f	pec-	pec-	8f#\	f	pec-	pec-	8dd\	f	pec-	pec-	8D\	.	8d\	8f#\	8dd\J	f	8ff#\J	f	8dd\J	f	8ff#|\J	f
!	!	!	!	!	!	!	!LO:LB:g=original	!	!LO:LB:g=original	!	!	!	!	!	!	!	!	!	!	!	!	!	!	!	!LO:LB:g=original	!	!	!	!	!	!	!	!	!	!	!
=43	=43	=43	=43	=43	=43	=43	=43	=43	=43	=43	=43	=43	=43	=43	=43	=43	=43	=43	=43	=43	=43	=43	=43	=43	=43	=43	=43	=43	=43	=43	=43	=43	=43	=43	=43	=43
!LO:TX:t=P:problem=mixed beam	!	!	!	!	!	!	!	!	!	!	!	!	!	!	!	!	!	!	!	!	!	!	!	!	!LO:TX:t=P:problem=mixed beam	!	!	!	!	!	!	!	!	!	!	!
!	!	!	!	!	!LO:SIC:s=(8d/L:v	!	!	!	!	!	!	!	!	!	!	!	!	!	!	!	!	!	!	!	!	!	!	!	!	!	!	!	!	!	!	!
8A\L	4	.	8A/L	.	8d/L	.	(8f#/L	.	8A\	.	-ca-	-ca-	8A\	.	-ca-	-ca-	8f#\	.	-ca-	-ca-	8dd\	.	-ca-	-ca-	8D\L	.	8d\L	8f#\L	8dd\L	.	8ff#\L	.	8dd\L	.	8ff#\L	.
!	!	!	!	!	!LO:SIC:s=8c#/J):v	!	!	!	!	!	!	!	!	!	!	!	!	!	!	!	!	!	!	!	!	!	!	!	!	!	!	!	!	!	!	!
8AA/J	3	.	8A/	.	8c#/J	.	8e/J)	.	8AA/	.	-ta	-ta,	8A\	.	-ta	-ta,	8e\	.	-ta	-ta,	8cc#\	.	-ta	-ta,	8AA/J	.	8A\J	8e\J	8cc#\J	.	8ee\J	.	8cc#\J	.	8ee\J	.
!	!	!	!	!	!	!	!	!	!	!	!	!	!	!	!	!	!	!	!	!	!	!	!	!	!	!	!	!	!	!	!	!	!	!	!LO:LB:g=original	!
!	!	!	!	!	!	!	!	!	!	!	!	!	!	!	!	!	!	!	!	!	!	!	!	!	!	!	!	!	!LO:MO:mod=!null:null	!	!LO:MO:mod=!null:null	!	!LO:MO:mod=!null:null	!	!LO:MO:mod=!null:null	!
!	!	!	!	!	!	!LO:DY:a:t=p&colon;	!	!	!	!	!	!	!	!	!	!	!	!	!	!	!	!	!	!	!	!	!	!	!LO:TX:a:i:t=Solo.	!	!LO:TX:a:i:t=Sol&colon;	!	!LO:TX:a:i:t=Sol&colon;	!	!LO:TX:a:i:t=Sol&colon;	!
!	!	!	!	!	!	!LO:MO:mod=!null:null	!	!	!	!	!	!	!	!	!	!	!	!	!	!	!	!	!	!	!	!	!	!	!	!	!	!	!	!	!	!
4r	.	.	8A/J	.	8r	p	8r	.	4r	.	.	.	4r	.	.	.	8r	.	.	.	8r	.	.	.	4r	.	4r	4r	8r	.	8r	.	8r	.	8r	.
*	*	*	*	*	*	*	*	*	*	*	*	*	*	*	*	*	*	*	*ij	*ij	*	*	*ij	*ij	*	*	*	*	*	*	*	*	*	*	*	*
!	!	!	!	!	!	!	!	!	!	!	!	!	!	!	!	!	!	!	!	!	!LO:MO:mod=!null:null	!	!	!	!	!	!	!	!	!	!	!	!	!	!	!
!	!	!	!	!	!	!	!	!LO:DY:a	!	!	!	!	!	!	!	!	!	!	!	!	!LO:TX:a:i:t=Sol&colon;	!	!	!	!	!	!	!	!	!	!	!	!	!	!	!
!	!	!	!	!	!	!LO:DY:t= :mod=%s	!	!	!	!	!	!	!	!	!	!	!	!	!	!	!	!	!	!	!	!	!	!	!	!	!	!	!	!	!	!
!	!	!	!	!	!	!LO:MO:mod=!LO&colon;DY&colon;ed=	!	!	!	!	!	!	!	!	!	!	!	!	!	!	!	!	!	!	!	!	!	!	!	!	!	!	!	!	!	!
!	!	!	!	!	!	!null	!	!	!	!	!	!	!	!	!	!	!	!	!	!	!	!	!	!	!	!	!	!	!	!	!	!	!	!	!	!
.	.	.	8r	.	8e/	p	8g/	p	.	.	.	.	.	.	.	.	8g\	.	qui	qui	8ee\	.	qui	qui	.	.	.	.	8ee\	.	8gg\	.	8ee\	.	8gg\	.
=44	=44	=44	=44	=44	=44	=44	=44	=44	=44	=44	=44	=44	=44	=44	=44	=44	=44	=44	=44	=44	=44	=44	=44	=44	=44	=44	=44	=44	=44	=44	=44	=44	=44	=44	=44	=44
!	!	!	!	!LO:DY:a:t=p&colon;	!	!	!	!	!	!	!	!	!	!	!	!	!	!	!	!	!	!	!	!	!	!	!	!	!	!	!	!	!	!	!	!
!	!	!	!	!LO:MO:mod=!null:null	!	!	!	!	!	!	!	!	!	!	!	!	!	!	!	!	!	!	!	!	!	!	!	!	!	!	!	!	!	!	!	!
!	!	!	!	!	!	!	!	!	!	!	!	!	!	!	!	!	!LO:SIC:s=(8.g\L:v	!	!	!	!LO:SIC:s=(8.ee\L:v	!	!	!	!	!	!	!	!	!	!	!	!	!	!	!
4r	.	.	8r	p	(8.e/L	.	(8.g/L	.	4r	.	.	.	4r	.	.	.	8.g\L	.	tol-	tol-	8.ee\L	.	tol-	tol-	4r	.	4r	4r	(8.ee\L	.	(8.gg\L	.	(8.ee\L	.	(8.gg\L	.
!	!	!	!	!LO:DY:t= :mod=%s	!	!	!	!	!	!	!	!	!	!	!	!	!	!	!	!	!	!	!	!	!	!	!	!	!	!	!	!	!	!	!	!
!	!	!	!	!LO:MO:mod=!LO&colon;DY&colon;ed=	!	!	!	!	!	!	!	!	!	!	!	!	!	!	!	!	!	!	!	!	!	!	!	!	!	!	!	!	!	!	!	!
!	!	!	!	!null	!	!	!	!	!	!	!	!	!	!	!	!	!	!	!	!	!	!	!	!	!	!	!	!	!	!	!	!	!	!	!	!
.	.	.	8A/L	p	.	.	.	.	.	.	.	.	.	.	.	.	.	.	.	.	.	.	.	.	.	.	.	.	.	.	.	.	.	.	.	.
!	!	!	!	!	!	!	!	!	!	!	!	!	!	!	!	!	!LO:SIC:s=16a\Jk):v	!	!	!	!LO:SIC:s=16ff#\Jk):v	!	!	!	!	!	!	!	!	!	!	!	!	!	!	!
.	.	.	.	.	16f#/Jk)	.	16a/Jk)	.	.	.	.	.	.	.	.	.	16a\Jk	.	.	.	16ff#\Jk	.	.	.	.	.	.	.	16ff#\K)	.	16aa\K)	.	16ff#\Jk)	.	16aa\K)	.
!	!	!	!	!	!	!LO:DY:a:t=f&colon;	!	!LO:DY:a	!	!	!	!	!	!	!	!	!	!	!	!	!	!	!	!	!	!	!	!	!	!	!	!	!	!	!	!
!	!	!	!	!	!	!LO:MO:mod=!null:null	!	!	!	!	!	!	!	!	!	!	!	!	!	!	!	!	!	!	!	!	!	!	!	!	!	!	!	!	!	!
!	!	!	!	!	!	!	!	!LO:MO:mod=!null:null	!	!	!	!	!	!	!	!	!	!	!	!	!	!	!	!	!	!	!	!	!	!	!	!	!	!	!	!
8r	.	.	8A/	.	8e/L	f	8g/L	f	8r	.	.	.	8r	.	.	.	8g\	.	-lis	-lis	8ee\	.	-lis	-lis	8r	.	8r	8r	8ee|\	.	8gg|\	.	8ee|\L	.	8gg|\	.
*	*	*	*	*	*	*	*	*	*	*	*	*	*	*	*ij	*ij	*	*	*	*	*	*	*	*	*	*	*	*	*	*	*	*	*	*	*	*
!	!	!	!	!LO:DY:a:t=f&colon;	!	!	!	!	!	!	!	!	!	!	!	!	!	!	!	!	!	!	!	!	!	!	!	!	!	!LO:DY:a:t=f&colon;	!	!LO:DY:a:t=f&colon;	!	!LO:DY:a:t=f&colon;	!	!LO:DY:a:t=f&colon;
!	!	!	!	!	!	!LO:DY:t= :mod=%s	!	!LO:DY:t= :mod=%s	!	!	!	!	!	!	!	!	!	!	!	!	!	!	!	!	!	!	!	!	!	!	!	!	!	!	!	!
!	!	!	!	!	!	!LO:MO:mod=!LO&colon;DY&colon;ed=	!	!LO:MO:mod=!LO&colon;DY&colon;ed=	!	!	!	!	!	!	!	!	!	!	!	!	!	!	!	!	!	!	!	!	!	!	!	!	!	!	!	!
!	!	!	!	!	!	!null	!	!null	!	!	!	!	!	!	!	!	!	!	!	!	!LO:SIC:s=(16cc#\LL:v	!	!	!	!	!	!	!	!	!	!	!	!	!	!	!
8A\	.	.	8A/J	f	16c#/L	f	16e/L	f	8A\	.	pec-	pec-	8A\	.	pec-	pec-	8g\	.	pec-	pec-	16cc#\LL	.	pec-	pec-	8AA/	.	8e\	8g\	8ee\J	f	8gg\J	f	8ee\J	f	8gg\J	f
!	!	!	!	!	!	!	!	!	!	!	!	!	!	!	!	!	!	!	!	!	!LO:SIC:s=16ee\JJ):v	!	!	!	!	!	!	!	!	!	!	!	!	!	!	!
.	.	.	.	.	16e/JJ	.	16g/JJ	.	.	.	.	.	.	.	.	.	.	.	.	.	16ee\JJ	.	.	.	.	.	.	.	.	.	.	.	.	.	.	.
!	!	!	!	!	!	!	!	!	!	!	!	!	!	!	!	!	!	!	!	!	!	!	!	!	!	!	!LO:LB:g=original	!LO:LB:g=original	!	!	!LO:LB:g=original	!	!	!	!	!
=45	=45	=45	=45	=45	=45	=45	=45	=45	=45	=45	=45	=45	=45	=45	=45	=45	=45	=45	=45	=45	=45	=45	=45	=45	=45	=45	=45	=45	=45	=45	=45	=45	=45	=45	=45	=45
!	!	!	!	!	!	!	!	!	!	!	!	!	!	!	!	!	!	!	!	!	!	!	!	!	!LO:TX:t=P:problem=mixed beam	!	!	!	!	!	!	!	!	!	!	!
8d\L	4	.	8A/L	.	8e/L	.	8g/L	.	8d\	.	-ca-	-ca-	8A\	.	-ca-	-ca-	8g\	.	-ca-	-ca-	8ee\	.	-ca-	-ca-	8AA/L	.	8e\L	8g\L	8ee\L	.	8gg\L	.	8ee\L	.	8gg\L	.
8D\J	3	.	8A/	.	8d/J	.	8f#/J	.	8D\	.	-ta	-ta,	8A\	.	-ta	-ta,	8f#\	.	-ta	-ta,	8dd\	.	-ta	-ta,	8D/J	.	8d\J	8f#\J	8dd\J	.	8ff#\J	.	8dd\J	.	8ff#\J	.
*	*	*	*	*	*	*	*	*	*	*	*	*	*	*	*Xij	*Xij	*	*	*Xij	*Xij	*	*	*	*	*	*	*	*	*	*	*	*	*	*	*	*
!	!	!	!	!	!	!	!	!	!	!	!	!	!	!	!	!	!	!	!	!	!	!	!	!	!	!	!	!	!	!	!	!	!LO:LB:g=original	!	!	!
!	!	!	!	!	!	!	!	!	!	!	!	!	!	!	!	!	!	!	!	!	!	!	!	!	!	!	!	!	!LO:MO:mod=!null:null	!	!LO:MO:mod=!null:null	!	!LO:MO:mod=!null:null	!	!LO:MO:mod=!null:null	!
!	!	!LO:DY:a	!	!	!	!LO:DY:a	!	!LO:DY:a	!	!	!	!	!	!	!	!	!	!	!	!	!	!	!	!	!	!	!	!	!LO:TX:a:i:t=Solo	!	!LO:TX:a:i:t=Solo&colon;	!	!LO:TX:a:i:t=Sol&colon;	!	!LO:TX:a:i:t=Sol&colon;	!
!	!	!LO:MO:mod=!null:null	!	!	!	!LO:MO:mod=!null:null	!	!LO:MO:mod=!null:null	!	!	!	!	!	!	!	!	!	!	!	!	!	!	!	!	!	!	!	!	!	!	!	!	!	!	!	!
4r	.	p	8A/J	.	8r	p	8r	p	4r	.	.	.	4r	.	.	.	8r	.	.	.	8r	.	.	.	4r	.	4r	4r	8r	.	8r	.	8r	.	8r	.
!	!	!	!	!	!	!	!	!	!	!	!	!	!	!	!	!	!	!	!	!	!	!	!	!	!	!	!	!	!LO:SIC:s=(16dd\LL:v	!	!	!	!LO:SIC:s=(16dd\LL:v	!	!LO:SIC:s=(16ff#\LL:v	!
!	!	!	!	!	!	!LO:DY:t= :mod=%s	!	!LO:DY:t= :mod=%s	!	!	!	!	!	!	!	!	!	!	!	!	!	!	!	!	!	!	!	!	!	!	!	!	!	!	!	!
!	!	!	!	!	!	!LO:MO:mod=!LO&colon;DY&colon;ed=	!	!LO:MO:mod=!LO&colon;DY&colon;ed=	!	!	!	!	!	!	!	!	!	!	!	!	!	!	!	!	!	!	!	!	!	!	!	!	!	!	!	!
!	!	!	!	!	!	!null	!	!null	!	!	!	!	!	!	!	!	!	!	!	!	!LO:SIC:s=(16dd\LL:v	!	!	!	!	!	!	!	!	!	!	!	!	!	!	!
!	!	!	!	!	!	!	!	!	!	!	!	!	!	!	!	!	!LO:SIC:s=(16f#\LL:v	!	!	!	!	!	!	!	!	!	!	!	!	!	!	!	!	!	!	!
.	.	.	8r	.	16d/LL	p	16f#/LL	p	.	.	.	.	.	.	.	.	16f#\LL	.	qui	qui	16dd\LL	.	qui	qui	.	.	.	.	16dd\LL	.	(16ff#\LL	.	16dd\LL	.	16ff#\LL	.
!	!	!	!	!	!	!	!	!	!	!	!	!	!	!	!	!	!LO:SIC:s=16g\JJ):v	!	!	!	!LO:SIC:s=16ee\JJ):v	!	!	!	!	!	!	!	!LO:SIC:s=16ee\JJ):v	!	!	!	!LO:SIC:s=16ee\JJ):v	!	!LO:SIC:s=16gg\JJ):v	!
.	.	.	.	.	16e/JJ	.	16g/JJ	.	.	.	.	.	.	.	.	.	16g\JJ	.	.	.	16ee\JJ	.	.	.	.	.	.	.	16ee\JJ	.	16gg\JJ)	.	16ee\JJ	.	16gg\JJ	.
!	!	!	!	!	!LO:LB:g=original	!	!	!	!	!	!	!	!	!	!	!	!	!	!	!	!	!	!	!	!	!	!	!	!	!	!	!	!	!	!	!
=46	=46	=46	=46	=46	=46	=46	=46	=46	=46	=46	=46	=46	=46	=46	=46	=46	=46	=46	=46	=46	=46	=46	=46	=46	=46	=46	=46	=46	=46	=46	=46	=46	=46	=46	=46	=46
!	!	!	!	!	!	!	!	!	!	!	!	!	!	!	!	!	!	!	!	!	!	!	!	!	!LO:MO:mod=!null:null	!	!	!	!	!	!	!	!	!	!	!
!	!	!	!	!	!	!	!	!	!	!	!	!	!	!	!	!	!	!	!	!	!	!	!	!	!LO:TX:a:t=1.	!	!	!	!	!	!	!	!	!	!	!
8r	.	.	8r	.	4f#/	.	4a/	.	2r	.	.	.	2r	.	.	.	4a\	.	tol-	tol-	4ff#\	.	tol-	tol-	2r	.	2r	2r	4ff#\	.	4aa\	.	4ff#\	.	4aa\	.
!	!	!LO:DY:t= :mod=%s	!	!	!	!	!	!	!	!	!	!	!	!	!	!	!	!	!	!	!	!	!	!	!	!	!	!	!	!	!	!	!	!	!	!
!	!	!LO:MO:mod=!LO&colon;DY&colon;ed=	!	!	!	!	!	!	!	!	!	!	!	!	!	!	!	!	!	!	!	!	!	!	!	!	!	!	!	!	!	!	!	!	!	!
!	!	!null	!	!	!	!	!	!	!	!	!	!	!	!	!	!	!	!	!	!	!	!	!	!	!	!	!	!	!	!	!	!	!	!	!	!
8D\L	.	p	8A/L	.	.	.	.	.	.	.	.	.	.	.	.	.	.	.	.	.	.	.	.	.	.	.	.	.	.	.	.	.	.	.	.	.
!	!	!	!	!	!	!	!	!	!	!	!	!	!	!	!	!	!LO:SIC:s=(16a\LL:v	!	!	!	!LO:SIC:s=(16ff#\LL:v	!	!	!	!	!	!	!	!LO:SIC:s=(16ff#\LL:v	!	!	!	!	!	!	!
8D\	.	.	8A/	.	16f#/LL	.	16a/LL	.	.	.	.	.	.	.	.	.	16a\LL	.	-lis	-lis	16ff#\LL	.	-lis	-lis	.	.	.	.	16ff#\LL	.	(16aa\LL	.	(16ff#\LL	.	(16aa\LL	.
!	!	!	!	!	!	!	!	!	!	!	!	!	!	!	!	!	!LO:SIC:s=16f#\JJ):v	!	!	!	!LO:SIC:s=16dd\JJ):v	!	!	!	!	!	!	!	!LO:SIC:s=16dd\):v	!	!	!	!	!	!	!
.	.	.	.	.	16d/	.	16f#/	.	.	.	.	.	.	.	.	.	16f#\JJ	.	.	.	16dd\JJ	.	.	.	.	.	.	.	16dd\	.	16ff#\)	.	16dd\)	.	16ff#\)	.
!	!	!	!	!	!	!	!	!	!	!	!	!	!	!	!	!	!LO:LB:g=original	!	!	!	!	!	!	!	!	!	!	!	!	!	!	!	!	!	!	!
!	!	!	!	!	!	!	!	!	!	!	!	!	!	!	!	!	!LO:SIC:s=(16b\LL:v	!	!	!	!LO:SIC:s=(16gg\LL:v	!	!	!	!	!	!	!	!LO:SIC:s=(16gg\:v	!	!	!	!	!	!	!
8G\J	6	.	8B/J	.	16g/	.	16b/	.	.	.	.	.	.	.	.	.	16b\LL	.	pec-	pec-	16gg\LL	.	pec-	pec-	.	.	.	.	16gg\	.	(16bb\	.	(16gg\	.	(16bb\	.
!	!	!	!	!	!	!	!	!	!	!	!	!	!	!	!	!	!LO:SIC:s=16g\JJ):v	!	!	!	!LO:SIC:s=16ee\JJ):v	!	!	!	!	!	!	!	!LO:SIC:s=16ee\JJ):v	!	!	!	!	!	!	!
.	.	.	.	.	16e/JJ	.	16g/JJ	.	.	.	.	.	.	.	.	.	16g\JJ	.	.	.	16ee\JJ	.	.	.	.	.	.	.	16ee\JJ	.	16gg\JJ)	.	16ee\JJ)	.	16gg\JJ)	.
!	!	!	!LO:LB:g=original	!	!	!	!	!	!	!	!	!	!LO:LB:g=original	!	!	!	!	!	!	!	!	!	!	!	!	!	!	!	!	!	!	!	!	!	!	!
=47	=47	=47	=47	=47	=47	=47	=47	=47	=47	=47	=47	=47	=47	=47	=47	=47	=47	=47	=47	=47	=47	=47	=47	=47	=47	=47	=47	=47	=47	=47	=47	=47	=47	=47	=47	=47
8A\L	3_	.	8A/L	.	8.c#/L	.	8.e/L	.	4r	.	.	.	4r	.	.	.	4e\	.	-ca-	-ca-	4cc#\	.	-ca-	-ca-	4r	.	4r	4r	4cc#\	.	4ee\	.	4cc#\	.	4ee\	.
8G\	.	.	8A/	.	.	.	.	.	.	.	.	.	.	.	.	.	.	.	.	.	.	.	.	.	.	.	.	.	.	.	.	.	.	.	.	.
.	.	.	.	.	32B/LL	.	32d/LL	.	.	.	.	.	.	.	.	.	.	.	.	.	.	.	.	.	.	.	.	.	.	.	.	.	.	.	.	.
.	.	.	.	.	32c#/JJJ	.	32e/JJJ	.	.	.	.	.	.	.	.	.	.	.	.	.	.	.	.	.	.	.	.	.	.	.	.	.	.	.	.	.
!LO:MO:mod=!LO&colon;TX&colon;a&colon;i&colon;t=Tutti	!	!	!	!	!	!	!	!	!	!	!	!	!	!	!	!	!	!	!	!	!	!	!	!	!	!	!	!	!	!	!	!	!	!	!	!
!LO:TX:a:i:t=tutti	!	!	!	!LO:DY:a	!	!LO:DY:a	!	!LO:DY:a	!	!	!	!	!	!	!	!	!	!	!	!	!	!	!	!	!	!	!	!	!	!LO:DY:a	!	!LO:DY:a:t=f&colon;	!	!	!	!
!	!	!	!	!	!	!	!	!	!	!	!	!	!	!	!	!	!	!	!	!	!	!	!	!	!	!	!	!	!	!	!	!	!	!LO:DY:t= :mod=%s	!	!LO:DY:t= :mod=%s
!	!	!	!	!	!	!	!	!	!	!	!	!	!	!	!	!	!	!	!	!	!	!	!	!	!	!	!	!	!	!	!	!	!	!LO:MO:mod=!LO&colon;DY&colon;ed=	!	!LO:MO:mod=!LO&colon;DY&colon;ed=
!	!	!	!	!	!	!	!	!	!	!	!	!	!	!	!	!	!	!	!	!	!	!	!	!	!	!	!	!	!	!	!	!	!	!null	!	!null
8F#\	6	.	8A/	f	8d/L	f	8f#/L	f	8r	.	.	.	8r	.	.	.	8f#\	.	-ta	-ta,	8dd\	.	-ta	-ta,	8r	.	8r	8r	8dd\L	f	8ff#\L	f	8dd\L	f	8ff#\L	f
*	*	*	*	*	*	*	*	*	*	*	*	*	*	*	*	*	*	*	*	*	*	*	*Xij	*Xij	*	*	*	*	*	*	*	*	*	*	*	*
!	!	!	!	!	!	!	!	!	!	!	!	!	!	!	!	!	!	!	!	!	!LO:LB:g=original	!	!	!	!	!	!	!	!	!	!	!	!	!LO:DY:a:t=f&colon;	!	!LO:DY:a:t=f&colon;
!	!	!	!	!	!	!	!	!	!	!	!	!	!	!	!	!	!	!	!	!	!	!	!	!	!	!	!	!	!	!	!	!	!	!LO:MO:mod=!null:null	!	!LO:MO:mod=!null:null
8D\J	.	.	8A/J	.	8f#/J	.	8a/J	.	8D\	.	pec-	pec-	8A\	.	pec-	pec-	8a\	.	pec-	pec-	8dd\	.	pec-	pec-	8D\	.	8f#\	8a\	8ff#\J	.	8aa\J	.	8ff#\J	f	8aa\J	f
=48	=48	=48	=48	=48	=48	=48	=48	=48	=48	=48	=48	=48	=48	=48	=48	=48	=48	=48	=48	=48	=48	=48	=48	=48	=48	=48	=48	=48	=48	=48	=48	=48	=48	=48	=48	=48
*	*	*	*	*	*	*	*	*	*	*	*	*	*	*	*	*	*	*	*	*	*	*	*	*	*tremolo	*	*	*	*	*	*	*	*	*	*	*
!	!	!	!	!	!	!	!	!	!	!	!	!	!	!	!	!	!	!	!	!	!	!	!	!	!	!	!	!	!	!	!LO:SIC:s=(4aa\:v	!	!	!	!	!
2B\	7	.	4f#\	.	8a/L	.	8dd\L	.	8B\	.	-ca-	-ca-	8f#\	.	-ca-	-ca-	8a\	.	-ca-	-ca-	8dd\	.	-ca-	-ca-	16D\LL	.	4f#\	4a\	2dd\	.	4aa\	.	2dd\	.	(4aa\	.
.	.	.	.	.	.	.	.	.	.	.	.	.	.	.	.	.	.	.	.	.	.	.	.	.	16D\	.	.	.	.	.	.	.	.	.	.	.
.	.	.	.	.	8a/	.	8dd\	.	8B\	.	-ta	-ta	8f#\	.	-ta	-ta	8a\	.	-ta	-ta	8dd\	.	-ta	-ta	16D\	.	.	.	.	.	.	.	.	.	.	.
.	.	.	.	.	.	.	.	.	.	.	.	.	.	.	.	.	.	.	.	.	.	.	.	.	16D\JJ	.	.	.	.	.	.	.	.	.	.	.
!	!	!	!	!	!	!	!	!	!	!	!	!	!	!	!	!	!	!	!	!	!	!	!	!	!	!	!	!	!	!	!LO:SIC:s=4gg#\):v	!	!	!	!	!
.	6\	.	4e\	.	8g#X/	.	8dd\	.	4B\	.	mun-	mun-	4e\	.	mun-	mun-	4g#X\	.	mun-	mun-	4dd\	.	mun-	mun-	16AA/LL	.	4e\	4g#X\	.	.	4gg#\	.	.	.	4gg#X\)	.
.	.	.	.	.	.	.	.	.	.	.	.	.	.	.	.	.	.	.	.	.	.	.	.	.	16AA/	.	.	.	.	.	.	.	.	.	.	.
.	.	.	.	.	8g#/J	.	8dd\J	.	.	.	.	.	.	.	.	.	.	.	.	.	.	.	.	.	16AA/	.	.	.	.	.	.	.	.	.	.	.
.	.	.	.	.	.	.	.	.	.	.	.	.	.	.	.	.	.	.	.	.	.	.	.	.	16AA/JJ	.	.	.	.	.	.	.	.	.	.	.
*	*	*	*	*	*	*	*	*	*	*	*	*	*	*	*	*	*	*	*	*	*	*	*	*	*Xtremolo	*	*	*	*	*	*	*	*	*	*	*
=49	=49	=49	=49	=49	=49	=49	=49	=49	=49	=49	=49	=49	=49	=49	=49	=49	=49	=49	=49	=49	=49	=49	=49	=49	=49	=49	=49	=49	=49	=49	=49	=49	=49	=49	=49	=49
!	!	!	!	!	!	!	!	!	!	!	!	!	!	!	!	!	!	!	!	!	!	!	!	!	!LO:SIC:s=4AA\:v	!	!	!	!	!	!	!	!	!	!	!
4A\	.	.	4e\	.	4a/	.	4cc#\	.	4A\	.	-di	-di.	4e\	.	-di	-di.	4a\	.	-di	-di.	4cc#\	.	-di	-di.	4D\	.	4A/	4a\	4cc#\	.	4aa\	.	4cc#\	.	4aa\	.
4r	.	.	4r	.	4r	.	4r	.	4r	.	.	.	4r	.	.	.	4r	.	.	.	4r	.	.	.	4r	.	4r	4r	4r	.	4r	.	4r	.	4r	.
==	==	==	==	==	==	==	==	==	==	==	==	==	==	==	==	==	==	==	==	==	==	==	==	==	==	==	==	==	==	==	==	==	==	==	==	==
*-	*-	*-	*-	*-	*-	*-	*-	*-	*-	*-	*-	*-	*-	*-	*-	*-	*-	*-	*-	*-	*-	*-	*-	*-	*-	*-	*-	*-	*-	*-	*-	*-	*-	*-	*-	*-
!!!system-decoration: [(s1,s2,s3,s4)][(s5,s6)]<s7>[(s8,s9,s10,s11)][(s12,s13,s14)]<s15>
!!!RDF**kern: > = above
!!!RDF**kern: < = below
!!!RDF**kern: | = vertical stroke
!!!RDF**dynam: p = "pio:"
!!!RDF**dynam: f = "for:"
!!!filter-modern: tie -s | humtr -p | sic -sq | shed -e "s/LO:DY:(a|b|rj)/LO:dy:$1/L" | shed -e "s/TX(.*):t=P:/tx$1:t=P:/LG" | modori -m | autostem -r | shed -e "s/yy//" | shed -k -e "s/\(y([^y])/($1/" | shed -e "s/-//B" | shed -e "s/^(\d+[\/\\]right)/$1yy/I; s/^(\d+[\/\\]left)/$1yy/I" | shed -e "s/^(X?)rep$/$1REP/I" | shed -k -e "s/[<>]//g" | shed -e "s/^custos:/Xcustos:/I" | shed -k -e "s/:TUP:/:tup:/L" | shed -k -e "s/r[a-gA-G]+/r/D" | rid -lid
!!!ENC: Marcin Jachim
!!!END: 2020-07-01
!!!ENC: Andrzej Kubiczek
!!!END: 2021-11-20
!!!EED-modern: Antoni Szymański
!!!END-modern: 2022-07-11
!!!YEC: Copyright 2022 Narodowy Instytut Fryderyka Chopina (https://polishscores.org)
!!!YEM: Licence CC BY 4.0 (https://creativecommons.org/licenses/by/4.0)
